louise87121/QuantityPrediction/stacking_predictions.csv
Actual_Quantity,Predicted_Quantity
44,44.627481536037806
-47,-46.45609226729103
11,10.026734035935803
5,8.644318107515634
44,44.628449887467596
40,40.892419862432746
2,2.2196666801136944
-35,-34.751829751979976
14,16.328703980931035
42,43.1819944006081
-14,-17.808282158152384
-7,-4.958856182943555
48,44.334432523128385
17,15.478612889565671
9,10.301435047505185
25,25.116297371588978
-48,-47.51810112423265
-43,-44.00435264889088
15,15.663974236890997
47,46.208802685149045
43,44.007770922293474
-2,-3.6268782770827537
4,5.591668770438306
33,32.87606545932197
1,8.793490386906452
22,20.02630824643583
7,13.41994613374888
14,16.13112046177654
25,21.15930601622427
28,27.726890484105475
48,47.23962095463644
15,16.23499941022037
31,31.653892726190257
37,36.393683147909314
16,11.822947466207657
31,30.735084582747852
-22,-24.00987647640371
19,19.62791470040255
21,17.842852650044883
12,14.7634951826294
39,38.11519770619132
29,27.613320680009707
13,14.759904672074004
29,30.40538929684769
20,19.651264024057763
29,29.409189451867384
48,46.71335831548263
31,29.431939432640842
31,30.832201863595426
24,23.554433959282544
-17,-19.548188058252023
37,38.075705305990155
22,17.119915290053353
30,24.907187277458227
39,36.543496180086336
23,21.628218048395762
5,7.382289729794164
12,13.481939409316512
19,23.06715405885175
2,2.9698533254222865
7,4.963072700294308
40,39.08667394923787
33,34.13277970023579
44,45.53081246752285
4,3.8786256467671683
21,17.170709883725625
14,14.093694084067335
18,17.97247859075001
5,6.056098282489063
12,10.44526834626009
5,5.607947168156721
5,5.946191965369366
4,4.337625921278099
34,38.21397364927152
-7,-10.142275818269395
-15,-18.60318711544225
-1,-6.843114048877618
3,2.6685070173020167
24,27.81439472690694
20,17.339656102963964
13,12.49367079701234
21,21.548707454789554
44,42.84213745085794
33,32.56415343100575
29,30.683550900004775
1,1.7325286667408464
10,8.76138820998786
-19,-15.725800504121931
36,35.90674623087457
31,31.915653659858556
2,1.8054627605433826
44,42.62957238040523
-34,-34.59199365490709
20,24.29957812757152
30,26.89516013800725
9,9.899520162349434
3,3.4030567834704266
21,17.936376652136722
19,16.963773667946757
2,3.109172831844683
-25,-32.13620956870773
2,3.2269681083638315
39,40.50040522968375
34,37.01003715482173
28,29.79186384643433
29,30.995024810873176
-18,-9.455891239854434
-19,-17.76577508031514
40,42.82573562460588
-20,-17.7030344319899
27,28.157877442497803
19,23.240761278089252
6,5.691994210081919
38,37.12749889444779
24,26.346389321146834
34,34.006662165302714
30,29.91316103284774
41,40.518480762870986
22,19.730286644203957
6,3.3375615250002397
9,7.206643412434316
6,4.719024504651087
3,2.508449217669673
24,24.516131937110245
4,2.353914701286084
27,26.883466635559685
44,45.36061498536288
6,4.0351580515228065
9,7.518944903936801
48,44.80692753993406
36,35.87341127020603
36,36.982706729176286
-32,-29.24825907506089
21,18.107464530870296
13,11.971923495106532
16,15.244782080996586
44,43.65236296195442
14,13.86025147025383
-9,-7.253394704616658
17,18.21871883979706
49,44.886552254879795
44,46.23359772818996
32,31.078463754768187
-24,-24.216623307299372
31,31.370640074754878
12,12.593596315768973
44,45.35495387422589
11,5.024837202608857
17,19.592363088941227
48,46.23005756156262
38,37.326680133883016
20,18.96035955943294
-10,-9.827850793611368
34,33.43853814139791
5,4.653744122293821
-6,-6.349821039939273
40,36.55114228176631
12,11.763112572477576
33,34.354993654928364
33,36.39547501720544
25,23.42641167492851
32,28.025279078594977
18,19.762689598043245
2,2.3661723365781357
-30,-27.24445468156813
35,37.54638186971933
41,40.721911028051636
34,33.43819964653659
41,40.87516897045602
41,39.700846361137344
32,36.49901430032331
20,21.545621352084197
22,18.024320670791454
44,35.529707522533165
47,48.025566435544484
26,24.84565832288072
28,27.08507647374359
-39,-37.03034706514421
46,46.24371039556016
42,43.99975201845587
-36,-34.88580691688582
25,26.021906557234868
15,14.601451130648547
38,40.82567215246262
48,48.22845331715534
41,40.62937733275589
6,6.459427223901213
41,38.26607857856715
6,4.260413371420159
16,19.037137371815888
-12,-15.959499072209624
41,38.38830668291294
28,27.878527721205156
-24,-22.11002659304064
34,33.192451210525235
20,23.34701670870649
38,39.54127323996662
6,4.585576882510676
27,27.629451942837154
39,38.23456610277862
8,7.4537450918946275
47,44.73366078146595
42,44.13919716490681
33,31.504881437919526
7,6.5803525022614835
17,16.674592831550875
37,35.57693590566265
-21,-21.447023993554282
6,8.035522087302027
21,24.340595683175085
44,46.11471190370546
21,19.104791275283173
46,45.47231617781228
7,4.953120108580283
32,36.0857425382786
29,26.32573481844637
29,29.66241602778071
-28,-26.9226798688871
20,16.14834319753109
16,15.084761476425138
31,31.412160324703237
48,47.36880403167358
21,16.18133815947494
21,16.152468055335397
18,17.37994679402741
10,10.437812816228167
19,19.08773782861025
40,38.34422155494826
34,34.91445851865191
19,21.423991216364
49,45.73205485511159
-7,-5.005273727849712
42,35.5020360099308
23,21.37809486900686
26,28.480655654744794
29,29.41008481004965
35,35.869337575725304
28,27.903264686087766
16,15.501134686903539
4,9.206238338008559
48,46.46448593328776
23,22.712211975466438
43,45.94869825812263
27,25.92996683881024
36,38.923759096908
10,10.339940694649691
34,32.972539496278586
33,35.362109079039556
8,8.044810532916324
13,10.744131672902126
48,47.86175096743802
39,39.67247696028232
8,11.746363255097094
41,40.73397238147087
9,4.9415872354686305
-43,-42.794675196922405
32,29.845861654551896
14,13.370288922287582
40,37.33199184305311
-9,-10.016262152295536
36,35.821858463079316
27,30.134278986771864
24,25.873278032517085
24,21.545346763387915
16,11.472579212388748
16,18.013122137541323
16,11.821799851504867
41,43.50312523951234
47,43.91448473780384
-7,-7.048670988670511
47,45.35312556556186
46,39.14302081190675
32,30.77644234850697
23,24.18073357837977
2,3.7982319514790492
11,14.054729116188224
47,44.11655425113915
38,35.99203335348817
23,22.76949283254045
11,7.341359685809483
-15,-12.48823745982793
18,18.570427118853473
26,25.942212809298784
22,17.319072943906342
27,27.050834490965464
35,36.75498230540624
16,14.801552536661635
23,22.477827115538716
22,23.110955832679203
22,23.290070295712688
22,22.658476428213223
42,40.50607543681073
48,46.384648958710855
23,25.196016952827545
25,26.690293545402863
46,45.09262255786078
13,12.579413903012647
8,10.238753875455084
19,21.728998356058465
47,46.695261415085945
17,14.25266558945551
6,5.390333624638123
21,22.19575942190919
20,21.363961102431837
-40,-37.70787635380746
4,3.398360773195604
29,26.822948654653747
-45,-42.79286251427233
48,47.20155887536821
11,9.88721927019835
27,23.00771743811482
13,11.81088426931197
18,14.593238241075275
21,17.098816838077735
22,21.66402403745184
37,31.770187292183312
3,6.046051900494875
15,14.421031101488479
29,29.27238324332088
19,15.268149507232113
31,30.014224308852885
41,39.73319033868609
38,35.14854098563489
23,20.777926974710876
44,42.83639237334013
-12,-10.139296427351304
11,10.045497607298032
35,39.87821238211881
3,3.2655921488620407
23,23.459640774210488
13,15.478510480992318
16,15.550520070310442
34,38.36711268437149
22,20.5070054069204
-31,-34.888165926814956
25,28.512296437290363
25,22.901084258003305
4,4.345828801456217
43,42.89131701444128
27,29.854390009706545
29,28.33191919090893
11,9.078932913217146
44,41.99105717398738
44,42.811213492498055
41,41.83501807345185
45,39.39018881524718
37,36.11421604215493
10,8.853191140869642
7,4.67998252472595
1,1.820366917064983
4,5.092068274884313
24,27.107251627976687
10,8.685395378932363
4,3.6225816590792856
20,20.128935249603764
39,39.1737787538529
10,11.592909526083991
17,17.880002752450462
26,24.571640801994825
28,29.699903045984268
29,25.750241306967688
30,28.903154260969288
45,45.55603924910106
26,25.795235804138464
39,40.03476786611218
-20,-21.30233573988414
24,23.195476193263147
19,19.448384958072737
38,35.12269860173892
7,3.887856352781813
-4,-7.289752140951942
18,15.896197730801362
22,22.173302298308865
10,6.29467371999793
-13,-17.795522214113127
33,32.20734778227465
-13,-9.68608646615567
37,38.97913922339721
-29,-27.961048411128555
20,20.013395493843586
-36,-33.4331516726092
46,46.56501846845783
38,40.79287711715857
23,27.01131306367866
-6,-7.368113636900749
45,47.124707445028
2,2.3371838099591598
16,17.178470254256357
4,11.569676075603688
20,18.30685737114969
34,35.63795082052589
18,17.17279710314843
6,4.130765391126112
46,43.705736827078546
3,5.64983779688288
23,22.61697103827167
21,16.860089390942495
11,11.576285526488395
17,15.991384328124424
20,19.671616204999715
14,17.28073773925542
8,8.036097120728572
18,17.011125738634387
1,3.482449982873184
5,3.8186136832565056
39,36.73218549996441
6,3.9609161291829187
14,13.89046017051794
47,47.12658215585988
42,44.491812599758305
29,31.23619973747733
-26,-27.189483776320248
47,47.66266594295555
45,46.856669193147546
6,5.281756733909194
-3,-2.6407463953725037
7,3.498118429886631
14,15.404229946147483
49,46.985687024846385
22,18.98348635553477
42,47.5385281295722
25,26.75093644331969
36,38.30603258774469
17,15.715101197183728
8,7.280803428971594
17,21.633843195876317
41,40.569187854789696
31,33.387733011459105
13,10.637261160300486
31,34.320311593379316
7,6.3907082667106545
39,30.05094444248045
27,30.060090214255805
37,38.27530643211701
17,13.475118487750148
33,36.71331369831637
15,14.699507472549273
45,44.58125300989244
17,13.774822413321136
41,32.14048628193349
30,31.002954125108662
23,24.474277945642907
-24,-23.027293405204073
32,30.67658522759388
25,21.699635580237363
37,35.84859105688215
36,34.87381999198789
41,40.46505813406603
-10,-12.069925184236746
44,40.87979819903675
11,10.357262793286688
40,34.490762357538905
35,35.22971446267108
39,34.80238457021895
49,46.04173368693531
48,46.66305410393483
48,42.846110043238774
2,3.8048595892461825
45,42.06138545839407
-6,-6.919898846600686
5,2.6563368060054424
47,45.193705632685884
37,38.445841347928486
-10,-5.284032681407368
31,27.961794562143346
20,18.78611276174833
15,12.669127201393332
38,36.05572796126195
22,24.93507702981465
10,11.411133338506396
25,26.905583030706083
14,14.81848925992838
35,33.16394214190757
-34,-22.376283773513972
4,2.096571799183376
14,16.20229701039127
-50,-43.28620502141863
-38,-36.1004869473863
40,40.52477372001389
44,42.73376853722241
44,39.57249971532243
3,3.2640770395931
45,41.760501679275905
40,39.649432027082455
46,44.522611327463515
11,13.94730167563636
8,5.832892010244816
-24,-25.08427750138772
2,1.770246313381348
25,22.898933525070532
43,43.14052192448858
47,45.15363637504492
14,14.726434577108606
40,43.90246367194062
7,4.836035503236631
18,14.196067107094953
15,16.048429150569635
28,28.363158334753194
48,40.88501689751981
1,5.142632060982368
-33,-28.279167864764183
13,13.904577772590706
32,33.051722380147886
35,38.442172644180786
6,4.938804545234376
23,19.685426879002012
21,21.808921869137265
26,25.188403782120155
3,2.332278847856795
49,45.77180577770966
7,5.488252489785932
47,45.13224854177637
46,45.640770271260834
46,42.87729174732685
30,32.74425888736392
15,20.830053689155747
8,9.214568203888623
48,46.484531052199934
37,39.71955833509734
23,19.087734775801213
9,10.088638468595825
2,2.1696496456482923
14,13.804372121725843
6,5.7259865992389605
31,23.137443634884466
14,19.13175021067136
3,4.6885258274197685
40,42.16936521614201
30,32.377540698850574
22,22.217142650369965
40,37.152602662458854
18,22.73823499062982
40,42.706492868322435
-10,-12.552627180111267
-28,-29.12045108575521
3,2.9985925698494116
12,8.928162898223352
48,47.27919191256736
14,15.411235931971133
14,9.88909881059208
27,25.196883397276544
16,14.402343034631512
-4,-5.028640685741042
45,45.81825477759727
26,23.852699842292637
11,9.079358152931773
44,47.41284845984
28,25.859578724540516
24,24.999532355035225
-6,-8.105478447875631
33,34.11052631090894
14,15.344967644198693
28,30.182997812087574
24,26.67513964092482
14,15.168323626005655
25,25.825459123120005
-15,-17.973874775190357
32,30.41665457810152
34,34.46901774960687
32,30.620363104147714
30,26.08181647249515
26,24.063617445047573
46,47.79977050038087
6,6.742151529889921
30,28.42365083321545
46,46.13535112865827
26,26.861614588376035
26,24.054851742725884
40,36.872896593746454
9,8.897213667283566
49,48.05477976103895
35,37.17631764654452
19,18.66840663940409
13,10.227069938358353
40,39.488059865307136
16,13.767578986973472
4,5.706376833219239
48,46.092375520021704
-32,-31.52541239706509
26,25.919391696913614
24,27.533462087038572
27,21.238347636620556
46,41.54229598661944
14,14.928999869392106
4,6.329159322277419
-29,-31.968573256825696
12,6.852588805911098
-47,-42.899271055030965
23,25.17282840000971
-25,-28.720986945578296
12,12.70682037757345
42,37.300678479841416
-21,-19.867862368875116
27,27.637923848857135
42,43.08200890590487
-45,-40.43514056621698
35,35.73975592393622
5,6.182148831046049
21,22.92192184167917
22,21.767620827221805
10,10.19085772734958
-20,-17.334417308935368
38,41.449697130717794
19,19.89648240702335
6,8.208817546220159
46,46.832524775554994
23,22.199819996476805
-6,-4.837477170813848
4,3.2172949539063054
47,47.86372334637434
27,25.09240905546351
26,23.85675023141821
23,21.242133558730867
24,21.860483268484316
28,29.81570910494124
9,7.996537834283406
7,8.432317492355727
15,18.100578350297813
34,35.228366575425525
29,25.31373797891984
-3,-6.88268500680854
28,27.088222062055667
9,8.065171426382209
39,39.46715237732724
-27,-28.255786151137073
35,33.42623411093575
39,41.03953186290852
4,10.743081610706765
42,44.916677207481605
18,14.35455999634076
26,27.621537751250973
33,30.376656757636216
8,9.909749129321058
17,17.905730341506224
48,46.30428955191046
37,36.41655370297472
36,38.26567882771571
30,27.638532722779708
-31,-31.273811009530384
36,38.95686707116709
5,11.533217061427607
14,15.58026166657494
17,12.840475969737248
47,45.70045170591718
5,3.0182346908323727
7,9.110837610313824
37,38.52124939001642
1,3.380858470862347
32,33.88453948498238
16,16.393101147160717
13,11.528211979571124
30,28.181732704063332
44,42.847112873921375
-34,-27.325834727484832
-37,-34.96962145392881
37,34.158530471528465
-11,-15.938717365870959
31,33.57279629226666
4,3.417631586929385
38,38.612728966359185
43,44.66899386295285
-46,-44.17583849393328
49,45.94293081652745
26,26.883411875343146
34,31.186469995958188
26,24.4022919116099
48,42.00501951016848
17,18.04691063466016
13,13.779966888931046
12,11.239849728370611
7,4.743544425698298
39,39.68717474465666
14,10.034357657686922
28,29.028803626967164
3,6.435151313208734
27,25.552289114273933
44,46.43048289001889
7,5.129459665681746
31,33.24845413215963
39,42.62933157573778
43,45.37260858150201
43,40.63798151499837
35,35.528858825687614
-21,-17.753536750022956
19,19.7588306409081
29,28.380498954003276
-45,-43.154874656190316
20,23.333232077289296
35,32.92114582628486
30,29.194196968503118
35,32.033513546654824
15,13.522609861053018
-15,-10.186781576868409
12,19.62490031222483
48,44.36399807574157
9,7.819044061397757
17,16.430343464580798
14,15.426062996611062
43,46.891664604560205
-9,-16.653301293478506
49,45.00280389674838
30,32.3600288396093
17,18.32147232060829
35,38.66977008835146
-30,-34.6404733553396
42,41.10239921083443
8,5.302377884740928
27,27.664255067754603
7,6.903322101118933
14,17.381612273799632
17,18.414414716197268
34,35.28658808122162
40,39.544572643399455
32,33.43796342334871
35,34.12799578499199
1,1.6910483237429523
38,37.78207091389634
39,39.31823479781435
14,10.43749512367569
1,2.1925533134649853
32,31.890397511371614
45,43.00045406021609
35,33.676579162321026
13,12.437090632075757
44,38.38142079750651
29,25.730412513798154
33,35.93075225072251
37,36.19453549983958
20,17.686781595385114
46,43.778261153211496
11,13.741471042016942
20,19.13306589849472
-37,-34.953590308987096
16,16.07217584921357
15,13.728319827592358
-15,-19.67837744729445
10,11.745229442953597
40,43.2341334638861
34,32.524743441950285
37,41.21996303888027
-33,-29.233823588237986
-30,-29.201597755577378
49,45.97450214051791
43,44.0947597457217
3,2.5363508405645763
12,10.55956487167858
-28,-25.724349072499695
5,8.444641962750323
-42,-34.77860752726766
14,11.83450038265775
-45,-40.41630767562465
23,22.651693947510836
45,44.04992846514294
26,23.641923407362064
34,35.65720670097999
12,12.345598428228215
44,41.22437861812152
20,18.82797702383143
27,29.95660579163667
-33,-36.140893906716954
27,28.007888406764504
38,36.624555030507494
-48,-47.98412626784796
5,3.3604526429400896
46,47.55873048738309
7,8.773959190602609
3,2.469203422859589
33,35.62882105790667
44,45.22592209403939
19,17.7393964056685
35,32.42017233057321
-25,-26.797610364851376
12,12.298679507210847
33,30.453819259432333
-8,-8.491761692637027
36,38.50843080068299
44,45.715417818967346
31,33.66667618762626
19,23.410933760793387
37,34.56477451466653
7,5.737203568877892
13,15.35503215985887
32,32.922244309124366
43,40.83353920661273
42,43.86837924059505
1,5.788379997016526
15,13.282216415363772
14,11.837493772382487
32,28.277733378312114
27,29.159986761398372
45,42.63009095414131
4,4.458940195111498
22,25.899180996337517
38,35.817358492611724
13,11.565082340909504
8,7.665218959262566
37,41.39482740699503
11,14.931462543962285
21,20.101150767617384
35,33.201344334349585
23,25.33819840847673
-26,-21.605500196172862
8,8.753511365111349
26,25.379683978324863
46,45.816166713638395
-22,-19.805556102296052
-29,-26.809674400288632
18,17.646272556004337
1,3.7830390492596155
20,19.84820922790039
21,20.431408393223528
35,37.308081853530155
38,37.95221766162689
40,44.123081095780854
27,29.60582874784078
27,28.725673397453676
23,24.227748626906422
-30,-25.853814643981856
32,34.254839688862816
21,18.236914983196655
30,31.128927860658933
47,46.34279502081778
17,19.276279303579358
3,2.2138818764827928
47,47.31966175715809
24,26.208768759627446
28,26.207982439320364
36,36.38880438957524
-37,-34.39949311229631
2,1.7852306695597424
47,47.024133897061986
32,33.936742707860375
-37,-35.06630912398752
5,5.748483129982969
26,27.89550622883233
15,13.891488071446892
32,36.31201200626246
7,5.735183512652224
25,24.71676730087353
38,34.613977185048796
40,38.03832009482199
45,47.34503602597779
34,34.88911127866056
8,8.253066222058338
48,47.91652306039401
46,47.271555757552996
-26,-28.91669196526602
19,17.939352948833196
44,42.8947683990327
40,42.37972332021918
-31,-31.426503786653086
30,35.11016196641417
20,19.25624947086295
45,45.32473457103748
31,28.102644671002434
7,10.168845934001327
12,11.650293356668737
15,16.837609864188202
10,6.8122538276215625
5,6.164499315484723
48,45.82526952856271
7,6.933669086747674
46,46.104926673798715
35,39.78887719034771
-5,-7.241804785062328
2,3.3176088924786558
16,16.246895055015873
44,44.31599617708105
10,13.913350729086474
21,22.461610439461325
4,4.68510981444125
25,23.235607227655816
34,33.80691337718734
22,22.241860971566343
21,19.750895262347974
20,15.804393553457961
5,8.269279120775252
26,21.637268255993668
25,26.54606720478616
1,2.2380975152593208
29,30.721468468041376
39,38.58321997833281
24,22.85252393789331
26,23.835565352534722
-18,-18.53614154617627
4,3.5362532777954683
15,17.47877711513271
28,28.209476844322488
24,25.122827395013008
13,15.109307356487452
37,40.302393419983396
17,20.217576560487664
33,35.40574205126533
-42,-42.68399430680266
-35,-35.027328840579685
25,26.16817287483163
10,9.952977661389298
45,45.07514196179811
43,41.88950392971461
-35,-33.82033369710687
-30,-26.617887206901713
44,41.42536557917608
31,32.754955856787674
23,23.550610255742225
16,15.749467575170424
30,30.603012501881945
18,21.223129495484056
1,5.440676356832187
48,42.76337930529801
29,29.877093395465703
-35,-34.84737129217792
9,9.035944191340901
15,17.535628032411413
17,14.89574777348932
22,21.549529780010847
21,23.041053204358427
-12,-7.294484017645763
26,25.409409691205685
8,11.653122943496882
16,16.83182282608022
21,20.14525503740739
28,22.870411078720917
34,37.1503742986725
49,45.35104033858258
3,10.111078003709704
8,6.477586410626456
44,43.68431166921018
39,38.99599139540796
8,7.348943567070667
37,38.51767835283654
-40,-38.750365738315786
7,4.954381104738548
-36,-37.83123276732736
8,8.97283399666349
40,38.396772664776414
5,2.5266108746608738
2,3.975511516079251
9,10.082040194424279
34,33.880399633409155
36,35.63007404916989
34,33.44229385465429
-26,-33.087360747769104
40,39.15285575380535
18,19.45017949642228
38,36.7330797909136
39,41.191964958606505
-47,-46.752019808622464
29,26.79382125399955
1,2.519391287242792
13,14.37778373513528
36,32.335940098195344
35,30.805107074388292
25,24.36682705385627
44,41.83290375682677
3,3.2949203977817656
42,39.459344305832
26,24.60270204077554
32,33.318737656993015
16,20.15775794587471
-32,-28.855121344117393
13,10.075770869881207
-47,-46.4082775354689
26,23.53211012193001
5,5.244508316961947
26,26.388681779797917
26,30.035415841448234
35,29.85812621696118
45,38.429003796026095
22,22.492805596271165
24,28.662122098102703
19,17.33159282825715
-34,-36.175108111256534
21,23.051575580027095
26,26.211594501391403
10,13.808966659989943
37,39.17098660157237
25,25.008524082215295
-8,-14.462116131374705
47,46.090501693104564
1,5.123432354188566
10,7.645705508640537
49,47.07557729737509
10,9.386319352936907
30,33.14601466308117
43,44.955048129149795
24,25.696837137327048
15,15.7279040660522
48,45.80920998721306
35,34.45021172135995
30,30.331783852029055
35,30.991333040679244
11,10.149473226894848
27,29.332881617965825
15,15.02938279918847
12,11.50295222972713
25,29.276937184762527
11,11.522380313813935
44,45.626608971058516
41,42.93883179207061
49,46.10517081507342
17,15.14507949089167
27,24.070985562066795
18,16.362631537108335
46,45.90113202729317
47,47.553226663334264
14,17.1039344660009
28,28.090733344187065
23,22.74512137940185
2,1.7503716665857447
3,4.307402538636918
33,27.8478954482408
43,40.328541328280785
8,6.383231476521502
39,40.8585584594481
43,42.144224742211584
35,32.53557554622354
8,6.819798774763624
44,45.08465660931018
40,38.64023662231617
24,23.407393932784682
27,24.642344515078243
18,20.237280695237406
10,7.544258124687865
17,14.60461524769888
23,20.019434117789608
21,21.445991868811657
10,7.2827645007977475
22,23.029309996078805
-19,-21.168150185363302
45,46.64279610124636
37,34.912211648423444
24,24.160635801077223
-22,-21.538849278293476
14,13.530413628111722
11,16.956263173065313
32,35.29522518269881
11,12.77538219946256
42,41.079536248506535
42,41.1350967372772
18,19.730204783565924
-25,-24.900615295622725
47,46.933522120334395
13,14.080417592816946
22,17.53430981046487
13,13.447646114977394
41,40.0598100269085
-41,-38.87449273099459
31,29.114994528244672
-33,-37.34452940440396
24,23.84879961293468
34,30.644731101219726
44,45.841726094201704
16,14.991709877318216
43,38.75145470283621
17,13.866187097641536
4,3.3094811735259166
18,20.24579855277154
-45,-44.271939391765514
5,5.244485045791496
12,13.452342226633428
14,13.509799430358669
16,15.412268760537742
16,13.782838938312645
21,22.28783116735483
-23,-21.616806184153127
42,38.17408302532446
11,11.770401908115133
8,6.008292898577673
42,43.84232627563606
39,34.13988975924996
18,19.24958548217305
46,45.28998775461077
14,10.727771259615986
-45,-42.13781861821573
30,24.564689476831358
12,12.342400047633031
33,37.18727742106178
9,12.722555947419815
17,20.171668060726116
17,19.806410944916504
43,39.17349071507502
-43,-38.95123082751274
22,20.187108436027184
42,42.03813183144752
42,44.25500214310098
34,31.377483463203916
7,9.216742670732016
35,33.315200304593915
29,32.06199617411762
45,46.17281663256266
34,32.13383786903974
10,6.112743289214624
16,19.063518721809018
43,42.02721986911632
-8,-7.899353337941113
48,46.95535713469935
19,19.270434798302503
49,46.72694548161686
2,1.717555205843597
9,10.030735917539047
19,19.980193576672242
11,8.990269734303801
8,12.431996379430592
5,6.436280305232883
16,20.25548741905211
32,32.7042801879838
20,22.762333362434177
28,29.133384042375077
48,47.07913055789564
9,6.516062896035629
-11,-12.55927893929044
8,7.291605230937291
34,32.28165584271686
49,46.625495536245325
11,8.644760446246204
8,3.753586082952957
23,22.048096007127043
24,21.466373995302128
17,16.49476539478464
32,31.31261201023545
45,39.7517169518168
9,6.898879127007572
48,47.94206688161093
44,43.67689846640991
37,33.27445549426811
15,16.67397395300634
37,35.80155986111628
12,7.009385136928821
14,15.849419456076022
49,47.75021118745302
-45,-46.69115546619857
28,26.091334132468834
31,34.37264277131896
38,36.002931626269934
-45,-44.124351735528855
-47,-47.62309984213879
7,3.4206254054352683
31,28.30231811935833
1,3.5110690384826344
3,3.2914880927025703
-46,-44.152175388980815
5,6.1936046049337
19,20.08588530141552
28,30.570252431368647
26,28.40221111809159
27,30.37950464259928
39,34.1080430802088
7,8.13950495768264
43,45.57179627381309
-33,-33.59456237247521
36,37.749983109351675
9,12.370466799592933
28,26.25007988029275
36,35.85870398269018
32,36.29426124528011
38,37.27662746372815
19,12.638900619692562
-40,-42.57009504563607
11,7.000898060978409
1,4.154427037764914
28,30.759257186986527
20,19.00554093039232
-31,-32.96532783638853
18,14.67500090056544
49,47.548522954003246
-23,-24.34665887940812
37,37.9264755507674
37,37.590221895627245
1,2.5230508492470145
30,30.64717697664161
33,32.7553483391653
20,20.97150427501529
20,22.45661476424485
41,41.79597381694583
43,44.41013272538741
45,47.3961591426063
-3,-2.565594013460308
7,4.872021022529788
3,5.073468330568716
18,17.236818405173494
49,48.19365643658104
6,8.305583774586765
4,3.561436864668345
22,22.095926595073358
27,24.182052705111033
4,3.960399198068025
-11,-18.27771690649099
13,14.79902232474285
26,25.846474847958046
30,30.406519240088127
-48,-45.57056834191218
3,3.4081473416654475
10,11.226483049418869
8,10.479385857114782
-40,-39.557269253281476
30,25.075948655324154
45,46.659957984907315
19,17.946375989554923
9,6.696298454859024
44,44.37591547763615
19,19.408866249851716
19,16.266897997588828
37,36.2804779650844
43,42.97337123484362
30,29.294117621545304
20,21.084363602320206
15,13.640376028967305
31,32.020417592670654
6,4.920258128802705
25,23.902926226556303
12,12.325930959742905
47,47.80989934298974
20,17.997473583743744
1,3.837192135972005
14,11.59253009457464
-24,-24.745677236053357
27,28.709567756699137
-24,-18.574581905309167
27,22.431950161555235
31,32.66281977868044
43,42.926694980406914
-23,-24.448395006450276
-45,-46.91414930151516
1,3.88507138792254
37,39.7526008357065
20,23.32876102077363
18,21.798583896687624
27,29.371522035340966
9,9.07923099779454
8,10.760479268565591
30,32.24660732111027
16,17.59834810435624
31,33.16648253652824
-16,-17.824669898959048
1,2.444065980395794
2,3.338528493260458
48,47.28710094595512
18,20.159289161781047
11,10.510589543184647
24,25.57409901303403
28,27.19281086173899
9,7.312395366085883
-37,-36.698636818349264
20,17.60802698228075
10,13.728870784694784
46,45.79723406632071
5,3.34620149346443
-10,-7.508127652657973
19,20.366132389198366
7,8.106286436790242
48,47.56103304390486
47,46.696131640896944
4,5.843318885079565
36,38.37011369122871
20,21.45865248851632
17,19.437040860402913
36,35.03802514960765
-8,-6.9517714010943
23,27.980195208322062
46,46.67675245659119
44,42.48662236854082
30,32.538756099783626
40,39.58794338297166
30,27.879148429448097
-47,-42.83307327921278
5,6.848475774104726
34,33.396193421067444
32,33.293882320723704
20,18.156524770803568
34,39.25201354898428
23,23.982886091965135
19,19.99142206565843
13,12.297763390322654
1,2.001868570739985
4,7.889126767631771
22,20.790275876051165
-10,-6.9640244293837235
48,44.31142242840998
13,11.233442027448056
4,3.9194251333068744
32,32.71488617820141
10,9.582752912392571
34,37.94259676188915
31,29.721032050406155
33,32.30573984296737
49,46.56318922807748
21,17.940554128992865
46,46.43706172215254
4,6.231225011210116
23,22.326132850554448
38,41.41147299227442
-15,-14.363030803468787
-38,-38.57992297108024
45,41.21652299895862
26,27.963671123516473
-14,-14.567142646359653
24,28.113515901905167
19,22.310070573632533
12,10.339163795000692
16,15.08665473280295
39,38.29255081347889
2,5.702805530801821
20,22.640367607538042
13,11.124095803980042
14,12.485618529932042
45,43.68781541475717
46,40.46144280472243
2,5.78219503566149
23,23.954599475481924
-48,-47.38270498085032
36,39.54273266875793
2,7.895556372020663
4,6.226721917794168
-10,-9.879605439101272
13,14.119247953608783
-22,-31.384843376810974
-19,-17.967081021408895
32,31.137858780830797
44,47.7286842016797
47,46.29880220383006
33,33.26398797043422
41,42.437027996110594
42,45.4648283557748
9,7.236804552245762
14,14.53785251074906
46,45.33513442115932
39,40.0434198738242
-3,-5.936140182123233
21,21.601844181588948
48,48.26668007441347
-30,-28.288573516279836
49,48.212330927027
20,17.72799669206819
-48,-47.184025262157945
22,22.93717605827244
9,6.923974049740421
-10,-14.563492763129354
37,36.55512383181749
10,6.686749961624747
7,7.2910650625879585
17,17.815961132406798
8,13.044569948287872
47,45.99638616940908
30,28.49174496775412
12,13.482937005520837
8,6.656822520852377
31,32.328142962265424
-11,-10.747310574944143
36,37.99991994622365
48,45.263158530647175
1,2.5836838897559513
44,43.675041281382015
-39,-44.26850560078591
19,17.562017680474106
3,3.470013396094895
11,14.37463102772699
23,24.090440526897865
38,38.01000587966748
24,22.191192466331547
17,16.49990492773935
30,27.452605159747538
7,5.178767846249482
-50,-47.590435217501025
-13,-15.87003861959566
11,11.532425515078653
32,33.45095797737282
9,11.63289105582392
-5,-5.777987945684101
18,15.828605346537149
3,5.783827300888364
43,39.343021962845626
6,10.117180511021953
27,27.90654697290821
12,12.668802257986618
28,32.40245203788404
40,41.39292445513004
39,41.20087447204675
32,32.31869428220997
7,5.383449211197882
17,14.349212314411151
24,21.368058452886626
18,14.062108574021627
25,24.193112149482587
21,19.528412291474947
9,8.14530128606752
2,2.7057695364038565
40,41.9608147358694
34,36.90169119729397
10,9.24804061719997
-26,-33.5630247930153
30,30.304249009830787
18,13.953109291423004
18,20.35168783242713
25,26.67314871409898
19,16.50838281965353
36,35.782175865827924
-27,-29.07691709026648
20,18.772933295176195
-20,-27.780675090807144
37,35.660298874148545
27,28.413642763662658
46,47.37402971342531
19,16.09444075174709
25,20.53070588562065
43,39.59516328477719
44,43.78055043111225
4,4.826797070608736
20,21.145181941825385
30,27.398990155037932
28,28.268261737476696
42,39.066292538259205
22,25.26107423571197
32,33.71612019162848
1,2.61915076095581
35,37.20699907298894
34,33.892141196904355
12,15.53903902996495
5,6.972384574404344
7,8.89091952465853
8,8.803577302021482
-9,-12.202925886786335
18,16.037439289266903
31,31.947432399711122
-32,-40.006741212380476
13,14.328832087846825
-16,-12.191126174571997
44,40.41633722446719
-10,-9.855257917570723
39,41.58531123643548
36,33.263884334472024
36,31.64571810371708
17,13.990432802868602
-17,-18.717507083399195
-36,-37.88720334959437
4,6.80411161104753
15,12.237377825264229
25,21.181029674553702
7,11.463145456433697
19,19.938376115495753
-44,-44.336651611418674
9,8.172517637620519
9,5.467894167130173
10,7.285795937641054
47,48.09861075404228
36,35.370066461245884
39,39.88677369194275
33,31.467696918545755
41,43.17040547742359
40,44.10472915357402
44,39.37792232710632
35,36.34541792329563
40,38.15551667934067
5,10.288537173454577
23,21.997773756452386
32,29.70836787707191
48,45.40050954395192
7,7.31546090478311
1,3.0637727642852615
13,10.298129970693347
40,41.110486385805864
26,24.362647430917836
6,5.243375507396929
30,35.22415076309854
5,5.400178457915449
8,10.953535424202975
42,39.89095856951268
18,15.498546410813843
18,19.579822439751524
13,13.611669741003512
28,30.720196392775176
-17,-19.857283605852547
5,4.769621660509388
20,19.754167272859465
-19,-17.800572496175807
26,31.22879421162968
14,13.36916460046272
28,24.07642743344553
-21,-24.206642542518182
41,38.87537964000821
7,9.065003445850358
33,34.522283938058955
6,5.210841833517662
49,47.63880400015472
17,19.928718302075477
49,47.26771681266213
29,25.61088907060397
19,14.838614226528232
22,22.397082721560253
48,46.500651797468336
31,28.730878041039617
25,24.6715178578433
-25,-26.59591557009986
40,39.346052281364706
10,6.995387915993681
45,45.36402110997803
19,18.07517560461082
48,44.50796000927315
28,22.89188496403317
15,16.754150884443916
15,12.876566771504255
25,29.600343455151013
1,2.0049358369598966
32,35.17523601858283
31,28.899859087425178
49,47.797161098985846
18,20.269647069971
21,25.976464030626964
1,4.00763094922665
29,30.144081971852618
11,10.752980486152861
18,20.616202300951013
32,28.964862591417983
36,35.20186223350212
40,40.78597297879363
-46,-46.528837740787466
19,17.024595923958508
5,7.7117422614653295
14,13.577301218400065
48,45.67541996024913
13,19.281010227093695
14,10.61297143432182
25,23.35560485529829
43,42.03465362323268
45,42.70157036058149
38,38.62244723461966
41,34.00065084182538
38,37.819487150495085
5,6.207574933281633
18,16.680718428594655
48,44.70352562884177
37,35.42544107503955
14,13.323987792996972
41,42.460607291434776
42,43.14509456497318
8,12.539017219250375
49,44.67977133967005
5,11.447142986160909
47,45.93035789224745
46,47.05539314375407
-47,-45.76631042444875
-2,-1.3939130327986502
11,15.85223234751683
2,8.145964411750356
18,17.400920064420774
45,44.146821196152835
29,31.619392599829595
6,3.663485977577582
14,15.109268382564123
39,38.59045039125652
17,20.05465031462882
6,4.73686451405668
4,3.4341993761389324
10,12.39790035143064
-4,-6.786048245181856
6,4.643326830673826
17,13.47437482680206
17,19.00476336500576
12,10.362526193601488
12,11.677014347119037
47,46.00694204456877
39,40.5265012196336
-17,-17.734794879481175
29,28.35466778686419
5,6.094197859778798
13,12.666276375933524
15,8.337237329481395
14,10.463252841148439
3,3.470055835329956
40,42.73338185814601
19,23.07065904888493
23,24.691575028805673
5,3.6148819890287163
-7,-4.974684566115924
40,39.084526234100515
22,25.06377834008772
36,34.428159838288835
8,4.881440446704607
10,9.810975653117971
27,26.309348465562994
29,29.83436175159449
3,3.659487918340411
40,42.150699360620784
8,3.5792130288777906
28,29.885142666424063
11,9.86675057391343
40,41.98859193050973
11,12.238060891695806
-47,-42.81553497877232
39,43.96972218610983
43,43.902864324944254
44,44.719174552222704
41,37.084074825453506
14,15.60034627373356
3,5.323698261349372
-19,-17.741690056627007
-21,-19.625211498100082
7,6.612610352318875
31,32.168013898941915
35,37.960921446999365
-28,-28.76012250198456
5,3.3248994896729878
16,17.371021042505145
47,47.843291924624886
27,29.01793598848818
43,39.71288440992861
8,7.021553535252343
26,28.347516557256608
23,20.66145446325355
29,27.71930660889329
3,4.2310204581317725
25,22.37954920702945
12,10.462669506577809
29,27.64436274303643
33,35.82357736631464
7,4.492085533971119
16,15.450413674907175
36,34.48525046607052
8,7.95060006757986
14,10.269330922805294
47,45.57881373910266
-26,-22.99145496512732
25,29.5042583394724
16,15.84965825898915
36,34.03062891333671
12,10.295637428325684
25,21.30263649565452
19,16.07092244040091
49,46.55531814698632
3,2.4237943352846134
10,7.09466177113965
32,29.827369192208057
32,32.27551833918589
27,26.385449040070483
29,26.14700362818726
46,42.9930785737566
45,41.94981498611536
17,17.907030836952696
15,12.478370435818494
12,16.994349235240858
5,6.8313496633467015
20,22.437417103171473
12,13.290179169789706
9,9.82341223989626
39,37.67999590219883
48,45.25178760826307
20,20.11373527716634
23,25.688438023138488
13,13.772413180715384
7,6.948397657901827
20,19.03886602642416
19,14.958900888190911
21,24.06335691409619
12,11.730634445455616
6,6.38224731134668
32,32.1333688294104
11,11.161605677222067
11,9.03256427057628
7,5.26330086824768
-11,-7.187309982388943
-27,-27.352091586737494
32,30.135409585569892
18,17.315044568397592
15,15.572324833991006
25,24.46328569906833
36,40.485429408737595
-48,-47.36964768538387
46,46.745714780297284
37,38.102774272644155
48,45.10935114985408
32,33.03733478624194
11,13.725080027250602
23,28.278328305743425
13,9.929909316208493
39,40.74722494952081
1,1.5912638522804627
40,39.464695601593206
27,26.840945592274576
12,10.513639273306469
5,3.011420177396095
49,46.60286019540113
31,29.026624458560008
33,34.785419523794175
45,41.24193477028662
33,34.11238480034257
44,41.16715906940428
43,43.7450182108292
3,4.075450202877784
25,28.42690215622026
7,5.293829378799044
14,12.699670994725494
40,37.96123432500671
27,27.825006529975564
37,35.78728630309677
5,4.093850983265356
6,3.937825924837348
39,39.96997301373846
43,45.75215395131155
13,10.515135487435433
41,39.39062983696105
3,4.8781570531259835
34,37.661568150534904
2,3.4231081597367106
47,46.09236892787002
37,39.218268191409216
18,18.23663319493799
17,13.630446956352435
31,32.798966405235646
36,37.17486787748028
5,6.632768135593335
34,32.1149009901775
12,11.788697753205852
35,35.86783253277432
40,42.8679582478419
45,45.412422377455194
21,17.59202971114149
35,31.393528066719576
3,2.4913077654523597
17,16.967929277972377
44,46.63896765556021
2,3.285992238324995
17,15.919344621394902
-18,-19.827739887478373
44,43.91531644363279
13,13.412011085765458
44,45.814705851231516
26,22.485968474498243
18,16.06525421887347
2,2.918195858684492
17,21.067360878669525
-10,-12.421236903792204
2,3.57344556477222
-27,-29.319180030572113
12,16.871031877585228
20,15.924864074938856
31,29.67457639695892
22,25.553132503890442
39,34.541976687349916
27,27.720685746868423
25,23.609683751260295
14,13.917125371796086
-11,-9.981085815230806
28,28.233614176405673
33,31.780109680303624
4,2.426876686950956
34,29.90153684335983
-17,-14.407377610001276
10,9.18342241053422
15,21.462497851544896
38,37.88105529571507
40,42.21424607827894
-15,-15.794983914461296
22,22.860417007909078
-29,-29.19291926973969
20,20.3372719695316
19,17.367608802467107
37,35.57896962491344
-42,-38.76891541192767
14,13.527030015900001
45,46.50704248855716
3,4.132916977691951
29,27.786803299114617
30,31.518891294731002
44,42.62748511197536
32,31.657867384722223
37,36.475141795778804
43,45.98520005311762
43,42.814357701822345
12,15.74686404553177
-2,-0.9132851400611605
32,32.57205437193732
47,40.957405279773106
43,43.93331601169094
30,27.801095389451405
24,23.948747079087628
37,40.04356159869867
-50,-47.972040395683834
31,33.57395112986052
10,8.822509917130995
37,34.40566421107096
35,33.25850349676815
20,17.11738550421934
17,15.486030696298723
5,5.170749670668641
9,11.836609623563952
25,20.691124647416245
18,19.394070789588103
16,10.375688331866986
13,10.120309297062473
1,2.68655163997896
2,11.521515148598482
35,33.32373038027213
46,46.935605539953414
34,34.255669565214475
21,17.040550343105423
30,30.95695007087224
44,46.99013250646745
48,46.029203465950914
-34,-32.162137622807755
-4,-1.5721383898554273
41,40.20398763814963
18,16.0441104298384
-32,-31.502516798978114
14,12.83617788901597
28,28.66899591976918
7,4.593582454734743
8,4.329850528853211
48,47.03069485751561
12,10.353689843619959
14,17.247137530122675
31,29.606327186724066
11,13.128417314198837
48,44.53220313974984
1,4.023231931665116
47,43.94758985363026
2,5.597669295686405
17,15.287433130073069
11,9.88064947288645
34,35.12827140100296
6,4.766552119473265
47,47.19145883503571
25,25.90023066535177
-34,-35.56974676047208
47,46.58523822989504
1,3.525688978463094
-37,-34.972481710832824
32,29.035787239554455
-1,-2.8361834908024606
34,32.6186745626361
48,46.825697605423926
1,1.704820863661249
19,21.643284820855538
21,21.76872556421414
32,32.289540138534825
12,9.031423343024061
45,43.190468385609236
44,45.0078699241077
18,21.691493193299863
27,24.20062419091992
-48,-46.149730997028215
38,38.83611569902163
25,27.58537491418161
11,9.866711792440437
36,35.06015907278407
43,41.90073968470835
47,46.80905224556053
7,6.735965208492866
18,16.024242159173543
17,15.064405904866655
-20,-21.26969110700141
1,4.621429663657629
13,12.256505322075908
29,29.715148181082863
27,26.654805807295123
18,19.292354383440728
4,3.252309225065683
5,8.10773249519386
44,46.22315301677137
12,12.625071740738822
36,38.33372549222948
22,23.12176472338304
8,9.057776286615088
23,22.452755326569815
32,36.47675757973575
31,31.662716799730696
36,37.22671438124711
37,41.774521295486046
-50,-47.55583209048498
34,34.19390328484854
9,10.1485541575178
4,3.250851080301848
8,9.962537166479516
1,2.1020065964452335
14,14.978619240017059
3,6.441750927738851
8,8.647908269612167
19,19.91495701018739
13,17.127329657782195
29,30.601386483889904
20,17.876186826822455
37,38.89643007174506
29,25.661328647231727
47,45.78904440612325
49,47.69868638927826
23,21.5182458972447
1,2.5420754109028127
45,44.1572087177679
26,25.367103766007673
-16,-10.849137686369696
7,8.817666269468447
47,47.89590658968244
-49,-46.12029165039982
45,46.10575392082706
41,41.48861973757832
5,3.9291906106423133
45,44.98429386524423
26,30.560871746209337
-30,-29.035664010071713
1,4.082283277774938
26,31.836593286476432
36,40.54003677180141
47,45.584003993292356
9,8.583017931813165
38,38.07213321222645
47,47.39548028804744
2,1.763804704318429
43,46.374697413109814
-35,-36.04367337769178
29,27.732279466264014
29,26.545405780954038
34,33.112997313252016
15,12.019160285623014
15,13.049807717758782
19,15.815385350906764
6,2.4157153487171934
32,34.996080112335875
31,31.27890996966131
31,29.82983869711271
20,19.04490261304599
31,31.14113898247526
-23,-19.772014557940935
-19,-22.974693448168697
37,35.15391923891645
5,12.579359049041198
2,5.437161497398935
15,16.48856740559508
18,14.064134344634759
47,46.517196991566706
38,38.44211475015731
-31,-33.95024185174842
5,8.914802034732638
-50,-47.640918431888736
1,2.01052134135449
20,22.299863622192703
6,5.57012361835277
-45,-42.41442085056371
42,41.25505151721681
-20,-20.611806583707097
10,12.82779596225799
5,6.278221959388173
-48,-47.08575206300808
44,43.98481410301067
8,6.280996310896021
11,8.389125129532507
10,8.946329615045656
38,35.711012001590326
11,10.024290087594697
8,6.141865976809326
26,25.32938393326458
27,25.213577987173302
2,3.8178454876335928
35,35.21560279221821
-19,-21.336872650508152
3,6.903430872753094
46,47.96025848797482
38,41.73344680212927
23,21.44706362232874
10,9.934823412859691
4,6.667173308041541
-8,-6.314516033564732
40,39.674911108570114
32,32.387581800464694
33,31.39367349322912
44,45.55723265645015
34,32.85382662248582
41,42.26762589077938
32,27.946106532308995
36,33.35129721216134
13,14.458513953253242
8,7.501730379018192
26,25.876154128675573
9,9.959845956107197
44,42.01290583858541
17,19.25640630901456
23,20.26145433662371
24,21.016937127893332
-38,-34.87226223051472
10,10.175544160110181
36,35.809166968294676
30,32.67129298838874
13,14.336495396212863
21,21.334474573798264
19,21.381114209612203
10,11.274201239223775
37,37.45961939825384
32,34.404417263530284
48,47.07701809896402
12,14.320837273465948
12,8.8970967360458
3,1.8353305310915202
31,29.46612393258267
24,22.47502715151787
27,22.696903399012978
47,43.06534185644186
13,8.80127890838352
21,25.55003382977597
8,9.330207045901343
27,26.701807737904318
16,15.640664783525253
-47,-44.36392293209991
11,10.97904811827877
-49,-48.94602498570907
33,30.87977582180972
47,45.41445628926046
27,25.397472862208083
6,5.889931257287171
27,29.212929365027247
22,26.633544096585194
41,38.52926119234641
20,22.9058327168141
15,11.831920741323193
18,15.78809152591544
16,19.776766852513845
38,34.431129949666484
5,7.106344013209956
21,23.92918755964705
46,47.245216173996326
42,44.732626184858
40,43.89046412647346
44,44.3929447147141
1,1.5400308288104079
-17,-12.444443070060915
21,22.08386670941821
5,6.3569692303766185
-32,-37.60858681223112
7,8.848376061589141
12,13.920057462770185
49,46.24742614398787
25,23.054222448316768
10,10.223539031541916
39,37.547735294163104
24,25.027785906994943
8,9.089702657262627
39,37.02443528485405
18,17.84093634499026
16,14.54902843159988
40,40.626202259176445
31,29.92327779066077
5,6.536616436169451
5,5.0965516742994295
48,46.885460274257575
31,29.324362798354944
39,40.80251449693392
-22,-21.37286257700558
14,12.693031310979688
-4,-4.720546571514151
20,18.36195292286621
-14,-12.261822348630739
26,23.304728424875343
25,28.32474418869149
40,35.006346630408764
49,46.59890014426668
36,35.13689149257325
43,43.10636587092071
32,32.9258057867067
9,10.069597432339892
-49,-48.50331165262918
4,3.316361218827967
10,8.060233547409112
39,37.38805947812746
-45,-42.47433656722748
12,16.61564071133784
28,31.377026627268236
35,34.339442971211554
37,38.469515280867796
20,26.09731242645625
35,39.41069366529796
25,21.490846474437912
10,7.170698605054996
42,42.02852157269969
29,35.38282841329357
48,47.22057174320141
-7,-6.637737040871061
18,17.28560986173155
22,24.27454039986974
32,33.404484610062035
45,45.36714408722899
28,27.272480456636988
2,4.674994429595646
22,23.142283203168418
22,25.132170102915577
3,4.543881211335797
26,22.963887311348476
40,36.11066519887628
19,17.502638425168126
38,40.081394585871536
30,25.587618590907987
11,12.352410622349828
37,38.13623525064315
4,2.9579706495451594
29,29.35760024705226
31,30.908334655852983
6,3.7895088457686206
-8,-2.6651100383952993
30,31.339575103888734
11,15.789790877351493
23,18.106333932072268
8,13.77979896612032
40,39.66925811457998
-20,-17.82691237582883
43,42.57485596358973
21,19.31826881784126
41,39.25954056587935
34,34.096989765731756
44,45.921460541056305
12,9.182115488414933
17,19.69399286347815
27,27.924686610894433
1,2.5726886517679404
11,11.286865637521124
25,24.176474398209695
-31,-35.48192855942983
-39,-38.74130318315135
32,35.441813176996014
11,11.887706338295784
8,7.020649703989839
14,17.148479526220616
21,20.594125912857596
31,32.41717798076811
12,10.22851899170273
32,31.173949241860072
42,40.972711914294145
34,32.7637351125629
23,18.465760559969635
32,31.918809249141113
8,8.849140096424765
44,45.468181181316645
3,7.081517387504952
-26,-31.528428032537054
5,4.457229660564171
43,41.555908031277184
47,46.077947613183596
48,46.62441710084676
24,24.376196615802833
1,2.0927053624252965
31,31.417951866809304
41,43.0156511871644
18,17.449960815091565
27,28.134915639042408
23,23.26980742446613
22,21.981359755427437
31,30.94831348889777
-14,-16.649003935171514
29,30.097909784992723
5,4.4782753155833435
11,10.487943039673336
45,44.88021832693955
41,38.74783634462829
22,19.468787986147113
43,44.978042145890164
9,14.07725883079517
18,19.09479089369727
39,39.91584279446542
2,4.506779673414866
36,35.98601831755784
-44,-44.293193777353366
47,48.10532034337904
49,46.90061381597072
33,35.599254035676736
28,26.330724756845424
26,24.115472992875524
3,5.070417751176431
13,13.82283113292797
1,4.018422249410975
5,4.036729502022639
22,19.863191599554632
23,26.795967563354502
14,15.465568803780634
40,38.10908472736159
28,24.147981248706298
49,47.33232742504365
44,44.36715573485859
14,9.43949140418588
25,26.23264127146589
9,9.30067378855296
29,30.693924084112933
34,34.59406775045112
11,12.68788509141924
31,32.302953568746474
-19,-21.917490014721494
38,41.2980432715559
40,38.18393622931359
30,30.82189134330571
21,20.14418699923211
6,6.409190237046018
48,43.3471203300664
11,9.876453186616267
7,11.424705097300803
18,23.191120616150194
10,9.071616668151854
8,8.493026381038655
11,9.006737397511817
36,37.18370386741044
5,2.4978286347410763
-36,-31.732346733421373
3,3.0624589736764927
38,36.093636694159486
-11,-9.992772664435037
21,26.260648081190077
26,23.161742873683224
16,14.22506092434428
26,27.580516311219718
30,33.15927977573955
42,43.949562128329134
19,14.852947743362122
28,28.09525036522927
22,23.395175398451958
33,35.34272518450519
-4,-4.933682232316129
35,35.0960648471598
-45,-44.45868048232518
17,15.770426248579998
36,36.07838740431953
30,29.07564983155115
47,42.66815096050632
33,33.70997952371431
14,11.156076731799065
35,32.787371447346196
35,33.086718069079986
46,47.56343516427396
39,38.343606468085746
23,19.225437085689546
22,22.574427952963866
31,31.00872361904666
19,21.91784328411328
29,31.394208320418738
34,31.444395017092475
3,6.901281369484557
-1,-3.326520540971356
12,13.809779602687705
4,4.59476885517511
45,46.5685634455348
20,19.02206041361644
6,5.275659945472974
2,1.7160155745505727
6,7.77324313708167
1,2.243596684439544
39,36.20073382479122
25,27.237142527011763
28,27.608996078592607
25,20.988753978511614
13,13.92666881372179
46,46.44565006357777
28,27.654977951756404
39,41.99342407383307
-25,-24.85681757195607
18,21.323826085222432
46,44.57560293538597
2,3.9592592329585257
39,37.57480895370428
5,4.104375921551622
-7,-4.257847229321308
24,22.966363164451487
1,4.369627206861919
4,6.570349808055723
47,46.87421970627508
10,13.347597447276582
-28,-30.363793555310508
32,30.593155246370596
-38,-35.953487388352904
15,13.563711412743299
49,45.517522054091586
4,4.6246040340055075
26,27.85821412389481
24,20.079188871237232
40,43.993332496748174
12,8.18959962004407
31,32.14310701048621
16,18.09448014671235
48,47.06728421300792
45,44.29925599957959
13,14.060462801773664
20,17.50234063353593
39,37.62112564016893
17,16.589225849205338
43,43.095439565575234
36,36.64226685656646
41,39.2775332410854
28,27.00166875039734
35,31.839342053203485
3,5.131633924303634
-49,-44.22391181627719
18,19.310823392877527
8,6.312970168121974
9,10.401145728634267
5,6.396838907734641
31,32.290581421206866
33,32.96112773478707
3,4.985177619961548
19,17.07554498860611
25,20.36287971453151
12,9.9443263482536
35,36.2086480163774
-29,-31.21821993249036
-42,-44.222009075572856
22,18.319873294796324
19,19.15720780480475
14,14.594313833942927
7,8.31578002016624
18,16.85071074968212
40,38.40461321348386
18,19.9085134192378
15,16.94927400136459
2,3.3282375874256096
40,39.39824327357157
1,3.0249619756250667
43,44.12401279831458
9,8.132905049012003
14,10.385560058573967
-42,-44.28978585937956
12,14.818368146996836
42,45.2070539650509
21,21.720138342592474
31,29.743450918709694
19,19.095912430474556
49,44.55205336239618
35,35.36248098124819
31,31.20735062696144
44,46.10437029669774
19,20.468905682108023
18,20.039663183732664
15,15.607813020990497
29,25.169178765826366
46,47.22873072367322
16,21.12286629307172
15,12.851223924171595
36,39.3098295049957
32,32.93957028029816
43,40.05761401688998
19,20.52169831203624
28,28.391270309858893
13,11.739647641478605
12,10.664864560719796
44,40.70849841985905
4,5.062879932002087
22,29.226828858540284
12,12.525830461592149
4,5.609253892227935
25,24.92236169482302
17,15.965289469833758
22,25.140086980476227
9,8.295801817680173
-22,-24.9229889419437
25,21.326445369760485
-33,-35.3519096976568
34,33.45502098709858
-7,-4.43047860461258
45,44.352287208757296
4,4.453621042993878
44,44.23163650616674
38,38.474712202713405
5,10.28281703220245
20,18.613779881843172
1,3.413413400357131
8,6.762479896153038
49,47.90179101738643
8,8.581448942461645
23,22.50191519553493
48,45.64253673102387
48,47.94594745692918
34,36.46887424793497
34,35.99347138113992
4,4.256049593728293
-27,-25.994107116849424
3,9.080141224854795
48,47.84284565060554
4,4.4584514806401065
45,42.7153187529253
41,40.64200759068561
28,24.406266535685234
38,38.214858810248174
9,13.519268450229237
47,46.68141553884448
32,35.5180591754434
19,17.396228254447532
11,7.876393941888004
7,10.216199001975035
21,23.71524312221801
21,17.846246459303508
43,44.86740702250403
-49,-46.452038522532284
13,15.39327770817908
14,14.585080936121924
-22,-21.358078759636662
22,20.255381857611354
21,19.74167493685891
40,38.642466217491126
6,4.763638382644617
-41,-44.198166208113854
5,7.427685430911574
4,4.3939200729705075
6,5.565147654939607
26,25.989790177285983
-12,-12.411705704198315
34,33.99472891701986
-39,-34.73600136880761
-12,-9.971934862521257
44,46.33031821804725
49,48.12127125812356
21,19.287424379978745
10,7.585460101441044
21,23.101501373999707
8,5.552291167575527
14,11.913351942341466
-37,-39.52895657781133
-26,-24.820985727135003
32,32.32569493902037
-30,-25.006680987541152
33,33.36381114316378
30,31.463122056696232
49,43.96356929059682
33,35.1787253170889
-41,-41.767180953354185
10,9.811099996959278
8,10.600781650389097
27,23.82159182631925
27,25.970538488701084
48,46.81523794766182
35,32.080690088931114
20,22.71366726269397
7,8.00480655795466
1,1.7120977604637155
8,8.389668528298918
28,26.727167447246412
17,18.031599138987872
6,2.521470121597021
29,30.231380285035197
15,20.166463876886535
1,2.564028678772802
17,18.756332989753986
30,27.699866216934748
41,41.50747152897498
29,29.794405982204708
27,25.621000280839688
33,31.778696648443
13,15.969258406921307
-28,-28.18212990817575
4,5.113145297238543
23,20.780315442728384
-31,-34.69289934877898
-32,-29.30314046917702
4,2.5300137816884267
19,20.699440373920947
32,31.39406947458698
49,48.24706689562994
5,5.004579586725017
7,3.804833161185485
30,29.237494540417032
29,26.158162026395395
24,23.68983800804074
33,33.14678797751295
17,17.58183464073436
1,6.421229905334459
42,41.367330994779365
18,16.024571547396047
22,21.718672138079796
38,36.218035566976994
46,46.68585667138184
-46,-47.16870587703483
48,46.67300967190237
7,7.951509008819579
43,40.795143803959654
10,8.458241733179662
5,4.160795032914126
15,16.399690412736216
-47,-46.56814574181665
1,2.3793575810072705
16,17.52168160419805
22,25.290043228049278
38,38.84859939267207
26,26.550240414150217
40,41.27725529931467
49,47.1435932547042
6,5.758797063897786
30,28.92706640797748
36,38.38437278054951
19,17.225448687533433
28,30.0376050770295
-16,-19.610365363160554
47,46.63266005493423
13,14.300646192199828
32,29.475766866803124
35,35.08861558878201
1,2.4518302768985025
48,48.287918198944865
6,8.863587512384083
17,12.760668191280297
33,31.418938452751185
12,17.488082058766313
22,21.700463385019912
-45,-43.90038093943102
26,27.623757901670558
31,32.4183453840804
12,13.006908609364855
26,26.06132212111945
40,41.56164437698812
12,11.969170315024522
3,2.3064663712874505
35,34.62207304406232
18,13.730772010077533
31,31.90923198992057
-47,-47.316380594511095
18,15.799370029124274
5,9.085910051112691
-28,-28.85445556850364
2,1.9702742792458277
37,39.23257784856058
35,34.718241272178105
48,47.19776221424921
-44,-46.951210806042944
35,37.17817584654254
18,14.982602315850736
13,12.004561446955504
28,28.71066031302965
15,16.301064671145426
39,35.11542546378694
18,18.28955189060814
-14,-17.76726456278152
23,20.498491882157907
30,30.061583170596883
4,4.125059078141461
-37,-33.03426553143737
5,11.56932143890295
-27,-26.552694728938633
-37,-35.3044245481397
35,37.10528523173179
23,26.505449306743305
35,35.57568159550203
38,36.74107250487162
35,36.623883200907024
10,9.108654869971211
20,20.156448541134253
44,40.49763119058307
4,4.949102462785821
28,24.106641131744695
8,10.458667287295519
24,25.82254319049958
18,15.967405989129949
4,4.863294218230571
43,41.58302155488665
23,27.91487675651217
33,32.063471531725085
-31,-29.21569206428804
7,4.870811993111442
4,3.7423958994344173
45,45.01262336781523
22,22.091380328240863
45,45.767793732708384
43,42.873111680041475
14,13.730284114471136
37,36.76764108816845
-13,-12.402010792248978
36,36.5338192297874
43,42.593073598710255
-11,-2.523122158181921
9,11.08330861770057
-20,-24.169957284641217
-28,-29.097250939904914
-7,-9.651220937483535
45,42.89833363923452
-33,-35.30175886527159
-13,-12.859025442692523
-29,-29.329611863390078
-29,-33.69797892842327
6,4.071035570563146
40,42.53682169538076
38,38.30198966904869
16,15.357293357454923
2,5.855127835182107
34,32.93135369481676
26,25.606100395287605
39,38.527403888584246
16,11.823521540428994
15,20.917477807704593
30,33.83967513832053
12,11.580307989870493
29,29.055329120575873
40,38.60949558232599
43,41.80973985685252
8,8.459965920626294
9,4.269450856768884
37,44.28896371260209
23,26.528588964072686
41,43.04183673952254
10,8.193090367411592
36,36.315648215899074
5,5.62022324153541
45,39.710812233535144
18,19.038796376908653
20,22.27690953430516
19,16.18647557460534
47,44.360418691415354
1,2.077750932833173
24,25.526080976870784
31,31.642400254935396
5,7.120828608317751
35,34.42876215933236
39,38.556406864903316
11,11.968201396245995
3,4.591782545766777
20,19.959130562000304
19,20.536603011115233
22,20.20938029905767
31,26.882999309087857
23,23.58400451257669
38,39.4955443237661
-37,-33.42387810096425
19,21.70446904569472
14,23.577692830008946
32,29.882353036452614
34,30.13717195271793
34,37.35278433511169
-15,-17.73185063161781
43,44.107076953557836
48,47.50995740776602
39,40.712686643030885
27,29.708673570760627
39,38.39679573409444
18,16.059127105877398
31,31.7227409581516
22,22.240733097436607
34,33.259131014180454
38,38.37576854790376
37,38.67910590826984
-5,-7.927974436585501
45,45.24792594533695
45,42.96032215900105
15,16.17489353974738
11,9.854476177559182
-16,-18.030853377645332
49,45.740196597830966
3,2.6374304154071826
17,18.093667683637143
45,42.859278378349494
16,13.468504806800633
48,45.70535026841974
24,20.18882808143169
42,41.9442071222598
18,15.846209913623593
5,5.444776374200751
16,13.933841161803308
26,23.73914469049648
38,32.43287311955068
-47,-48.57680766999288
46,46.972030033905114
-20,-23.03807596849846
12,10.616112101377261
19,19.1579495196622
26,24.0217672063059
9,9.329800638177465
-1,-7.569882556026246
27,25.962417846296336
5,4.999056530962539
12,12.437980594408325
21,22.44300536513309
17,18.06792240072586
47,45.605001936305214
28,29.0892689363979
45,41.128622305970474
19,13.774037162802003
-19,-16.123410292548243
18,20.299062092122586
48,46.2375693743903
31,36.002539353623085
31,29.64838472019109
20,17.327569599232273
-1,-2.605679334300334
-21,-24.714974238368374
6,8.974546276728917
5,7.2091414645442775
-34,-31.418346738474213
-25,-19.54898456816958
-18,-21.227380680270624
44,46.07984791870388
8,12.113834472692965
-41,-37.6602552292595
8,11.233763887388594
10,11.236917505025602
11,10.19099594499799
19,21.693186035854573
35,35.30221110827543
5,5.57217181673354
39,41.56480455128769
40,42.94239305720389
49,47.290293331517326
-17,-17.773438125023173
13,12.414781900308324
46,46.59072347776973
18,16.999168974494047
22,22.79089937835369
-23,-21.739113616109318
27,27.896576480785885
10,11.465592623665495
21,20.170749853624383
19,17.82781761966039
31,35.31829249250972
-45,-47.382211768432335
20,22.40655116676626
2,2.868218276867984
46,45.48855964234955
8,8.182444817653046
-39,-38.15318651353198
29,30.15320022740092
4,10.206274387901557
48,48.35884147644524
35,34.412130785832574
36,30.163300828020517
38,42.218791786278345
27,27.58711536950255
49,48.24470149304568
-44,-44.65690193717671
5,3.4383075735368434
45,45.76896092128385
28,29.20831681510827
-39,-39.80630489627432
22,20.34587170844089
31,30.656511428809736
-30,-29.55215780100363
34,38.00931811842027
48,48.362934862465245
-2,-2.5736507089866665
14,11.469509444842146
-43,-47.37612414983151
1,3.009171053341528
29,29.866058982413037
25,26.40267250432938
12,14.617685829626275
45,43.50709021334471
33,30.037139985902147
34,29.533230510904275
30,26.74701330244663
29,29.04081337457293
21,19.013428606972077
45,41.43555254959345
26,26.76017159745244
15,15.861858791801724
11,5.985494453478454
32,28.624909721945436
16,20.05756634271045
30,32.493354154005075
42,37.336072495823956
44,43.135153468703656
25,26.01471970539152
-16,-14.368155614706527
40,39.321148332025
-3,-2.654003589441851
6,7.0688879267067986
17,15.102181995624921
33,34.46477807869417
14,14.5552575807024
3,3.4329138188194266
31,31.55615362260517
23,24.227308854060198
6,7.161560048427202
-33,-35.02583842027826
1,2.1788917286086225
38,38.05555730527529
3,1.8209856149471737
6,5.136166331542494
42,37.165942021533596
36,38.84063173974321
7,8.711924229873084
7,6.51283581561437
-46,-43.79245575502312
9,7.069333583921738
26,27.86588644633687
23,20.832469524584138
24,24.6893886460614
32,29.354470691415056
24,20.915592001515286
38,38.627633175103185
28,27.872007114035487
8,13.508994954798265
31,32.39162548964788
40,34.433640593415106
24,27.377357204308034
48,47.1257871173453
46,42.7934273184807
2,5.375599249557913
33,33.833785167176146
47,44.691480810740984
26,26.78616138441327
3,3.590900475132563
12,13.677096399872811
39,41.83164713345503
48,44.84738083559794
15,15.15518709749149
8,5.541881128220867
48,47.07644830612949
39,39.42890637989317
10,7.808926724654667
1,3.6212975448441473
33,32.42505569348509
31,30.832445677628876
36,34.74979902013319
42,41.67316430353537
45,43.657180228486425
-26,-23.769301030186252
15,12.096911961588786
40,36.014581295907334
32,32.22667520060507
16,12.291428822470062
25,26.31224863578836
13,14.826993452866871
39,38.74933385377054
25,24.775140595866496
49,45.82584522937981
24,20.32357410568835
46,45.72885742836551
6,6.229769094367959
49,47.31721635872111
-11,-14.57618756138362
13,16.492783798476772
5,6.474073409262048
-50,-46.43134874090344
42,43.975569453664306
1,2.2640516034302007
29,27.212704456938777
23,26.29873603506965
28,25.208374365129096
4,7.0798343177780625
-10,-9.75270309018924
20,11.765081393631558
9,12.261016745514159
3,12.64862676635623
15,14.595242544043591
-17,-17.692857399607163
27,26.529066373358496
20,20.70930490577198
-45,-44.325182273452235
49,47.01637040206978
6,5.764022523457737
5,3.71866074269293
31,32.254208925493444
-48,-47.63363773436853
41,41.675699594140305
17,18.560578195897254
49,47.40975703456885
5,4.498220410800841
5,4.778238608977416
40,38.70803266625125
13,12.864561113687966
31,29.347165248436642
7,9.105804176799499
45,45.81025580921291
-32,-34.869669554297424
12,8.622714868470496
46,48.087292604484425
40,42.729906388399186
30,32.89618213597161
45,43.14152034304649
27,28.244082121407033
10,8.06006701513442
45,43.39070154282191
43,41.417300732309336
27,25.821709766014884
32,32.865418627339665
47,44.8541644283861
13,18.400968203743638
38,35.861008418668554
7,3.5638955822478833
17,18.677510359007236
47,46.78371246556684
29,27.372354016713334
8,5.551107507680272
14,12.526293860119255
5,3.1690842141040143
15,17.333273742161666
44,44.203957157071436
33,29.57932377611316
28,26.46496126553204
33,29.95161454505054
36,36.45773097055521
1,2.5463423102211684
35,32.751138616439505
41,42.044586966851774
6,7.756256379631587
11,5.673686644695448
37,35.559703223123954
9,11.439480788448511
9,10.615176620510386
41,42.662424550709304
-7,-7.6086166575440455
38,34.659489645510924
45,44.146201866860714
13,13.790395079720511
19,17.310573023302787
26,28.09023050483487
30,29.905744686271596
13,10.51410514423799
-35,-35.64667083413413
12,8.169382755346156
47,47.16876096996711
35,36.01633673934495
5,4.059241017993122
44,42.976308490266845
37,35.684901074716215
16,18.776385185013055
49,44.366978208872304
36,41.35008715897892
40,37.99869907853312
23,19.285531303388396
33,33.43931466735093
-15,-15.951584880623441
24,22.258945978110454
38,37.272418972954945
21,17.400607105922287
33,31.31668957921935
-24,-26.67819455225722
19,15.948700700347924
36,37.087628622587594
-40,-33.76897937886729
45,44.061390943115796
26,27.484236857806497
22,22.81601263280671
-14,-14.8962475617561
30,29.40471657177746
31,30.986731827589576
18,19.96988998846912
13,11.679154918036295
2,3.299142918721493
40,40.89106497443789
38,33.867585296365334
8,8.138520515607373
31,34.31712835096179
49,42.380853919017206
43,45.82082158502208
40,41.93322274288991
23,22.880967493328633
11,8.366488349051016
27,26.082373390755347
13,11.904972224421478
3,4.188863180197948
49,48.109718601061616
12,10.151613604197644
12,7.396422645791012
31,38.057159586704195
39,40.02014610610592
36,36.784763721247714
17,13.541284854723342
46,45.74962142101748
2,2.315158131954512
11,7.548306123828791
48,47.75583230747638
13,14.640829527175345
49,42.260458796307724
33,31.99889219624031
22,20.712184118838604
7,5.7421094564351565
36,41.63217229550434
6,4.2114427347084415
17,12.620106797633639
2,4.4783327220541524
12,16.624043335524636
6,4.804899880055076
38,41.338409369590465
37,39.3854745827004
9,8.111038544860033
20,20.056285681660107
44,42.6900126904367
17,16.25500128385194
48,46.319822231134104
48,48.1511913880531
3,2.1538883541566363
25,21.14131226194592
37,38.308060553761884
39,33.387505966524074
12,11.619199568338809
17,16.712450035764412
14,16.58450393131009
23,25.435500672294904
48,47.6403993091935
-6,-2.716492955045467
-44,-44.662896431822006
31,26.75981179415072
-32,-33.542471252881484
15,17.2780162370405
41,40.99395786479373
38,40.876116852226545
13,10.48746422010356
25,27.289077836227587
26,25.346342915234978
48,41.09153242023093
13,10.716458755423853
45,41.6156084395183
11,17.212508762095048
44,44.9801993283747
21,20.451956286947762
7,5.672209170822368
34,31.88672100525492
-48,-46.941405539455594
-18,-22.10492898893256
4,8.2374427329195
44,40.888733565528234
20,24.40076361595206
3,5.298770853813671
18,17.818783891285534
11,6.859054530278662
29,26.90288085889125
26,27.222398662028564
37,35.687438815126065
-21,-23.166293366478598
3,2.439561604622284
19,12.695874468597202
9,6.748571110641516
36,36.53653103961195
37,35.442829970666125
41,37.9694112586382
23,23.395752241725507
28,29.987767970434593
43,45.65915525276129
48,42.81778689832531
19,19.94503400723817
15,16.290538982696503
9,9.637663190055093
18,22.85200987348193
25,27.23245526211517
7,10.717190172008225
7,11.320023985364465
8,7.503235865730588
9,6.345090228872681
36,37.57651714586102
17,16.115315506789504
37,39.36188439416218
39,43.38132207636376
33,34.60107970077709
14,15.651327616610805
26,24.201049380573775
42,40.53492407368623
34,38.01534920747783
45,42.820031552209734
-50,-47.270702002477954
13,16.542221341257815
7,5.507721378336967
-45,-46.48376413697981
36,35.18928849044739
23,24.1054432273426
49,46.22911659980208
42,39.53019686671463
19,17.337086098752405
5,5.623269053809941
41,42.8793528271307
22,21.608153664183465
40,39.286275245831355
31,28.146492140384574
23,22.585529099150286
-1,-3.271121199868067
-18,-17.880529778957264
42,44.41079952508882
44,45.32382843317906
36,37.23340413925402
42,39.00231893338523
41,38.1803982545229
6,5.847553770798682
32,27.686921860032665
23,21.65845348855727
26,25.850794962863297
22,22.675216090993157
35,35.52798654846068
29,27.821703959054226
24,21.66048889779276
12,11.64556711195134
49,47.00127136318054
25,27.86075824438196
44,44.39513572495249
-36,-36.7646174162248
-6,-5.056031500529398
13,12.688436880855448
6,4.521740388730542
42,41.80137396697024
34,33.68207537881351
43,42.01921844496985
1,2.1200424953472767
4,2.353744232454328
20,17.10968830411733
22,21.014442392999808
3,4.276110657929139
47,44.97868685221523
40,38.993988324898574
42,45.817241021175825
13,15.00578751475605
-15,-12.459750211349713
12,12.539470316100415
48,47.428072963208855
30,28.76984308257287
43,46.04489523931076
32,31.66114426799967
35,34.83107346397343
20,23.035115035624134
41,40.534134209475084
-5,-4.920631383882906
11,12.104953359721781
26,24.459626322663777
-15,-16.81928902050359
37,40.05652070027593
16,16.1615092572238
37,37.79909215307556
48,43.489574397933
11,12.489637896392859
-18,-15.99555265637553
23,25.06880635873969
47,46.00995210356949
25,27.71198676887381
43,44.21368402643952
38,37.28738554503379
13,9.34654101024957
-2,-4.92287392926035
12,16.974084821176735
27,29.508493484412003
4,4.496637008205963
30,26.8992156228318
33,34.4012786014153
16,15.987201238566787
10,8.70661875765919
48,44.438952492822885
23,21.507357801336063
30,31.237915104545685
34,40.199404170517916
14,12.487680399027422
34,37.189924512535775
24,22.37626219020847
-11,-8.688804027639359
2,2.6581973786855313
-41,-40.11515292719894
21,20.848873134246666
-38,-35.237719219056146
40,36.56239589667586
5,5.0877920337608815
16,12.545448927839066
6,5.721521303151634
47,47.28962106837368
18,17.320974013568193
7,6.227914951288152
38,36.247243886575795
21,20.818993590145148
48,46.389467315201784
14,16.019166601252643
35,35.245789382115625
7,5.05004745629798
48,45.34590908384168
5,3.4347605862762207
32,31.12958718409293
31,29.85748346503863
5,4.919207606661338
19,16.570245831828952
35,34.371977407408316
48,46.653504472782565
39,37.57747400740863
17,16.691598942655645
9,8.63470558096474
34,33.12539200174823
34,31.0980446550592
13,18.97347449526006
23,20.55339560709753
24,26.48093336935532
4,5.874674413847832
18,12.94995701764822
31,30.694050197269213
15,12.907405613291626
10,11.167687893892577
3,3.2086531464800636
25,27.525757226211823
33,31.687993639351184
44,43.71697858438838
29,28.296035731541906
22,22.449152771271994
38,33.573054757002005
37,37.142628230928224
23,20.253723305026895
9,11.57210863140705
17,17.951548441235033
6,5.000998596718328
49,47.83044197312583
23,22.410662761664433
39,38.32829691855519
38,38.43594969472153
42,43.99145848074457
40,36.03543573035436
19,18.157231521907782
8,9.908997969989816
23,24.45454994610064
7,5.732360005164983
3,4.088436764863175
-43,-33.677916275398445
16,14.749062180061145
17,19.778690903487867
4,3.165058191971713
20,18.418026361624545
38,37.09759719035809
3,5.190012151330506
-49,-49.092817271253615
40,38.518711161271405
39,43.663422301436626
22,25.05203271763288
30,29.432766228563217
17,14.300109058416615
44,42.991841089470455
39,39.30576267872025
20,22.052560840846507
43,43.31010816244818
-5,-6.50201077390374
30,32.878319318292185
4,8.965483603306028
32,34.18139412965351
-27,-25.148208398124094
10,9.319382425844944
46,45.51622068238233
-40,-43.86752358110266
39,38.609504087368954
29,29.91930741713547
19,22.41561799291853
15,17.589112512258907
47,46.801928532073255
22,21.258889547525087
42,40.686345719739194
-15,-19.553801255279097
36,36.19878091196494
41,44.31757626785177
1,3.0757228858275485
46,45.542550348083
-41,-42.693596811620665
15,12.653196161217167
24,27.4542057315903
33,30.53620769790014
39,39.03487992894907
9,10.328115296677343
2,3.016714881823851
18,19.99490173689785
8,8.072333723938629
41,43.982320665685414
7,5.692974315267593
3,2.6297065712523087
40,38.157288092894696
46,46.870412496836494
39,40.85719554862971
13,17.65728284687088
-25,-22.79332584241702
-46,-45.28272930412062
26,27.051522654624783
10,14.065134582037386
16,9.25144277330683
13,15.743046899471834
36,36.7943781171303
39,41.52214996574047
49,47.2991841068094
48,45.85080893174826
36,31.71842453789144
9,13.554641700799465
49,46.99817663979778
29,30.621108122942168
19,22.47456605212583
39,38.53140625269723
40,44.718483676730514
4,4.990654498756729
11,12.163561847685697
1,4.9308797776971245
5,4.472797931610394
49,47.656818230968575
-17,-14.616450513436757
28,30.064038283521526
34,37.09704605884801
24,25.27348807104778
34,32.49062754299283
8,10.359321300042536
-29,-29.171667698805305
8,9.077527575234557
28,30.64792416575086
19,17.38148981814803
9,7.330479391756077
6,6.22080455788786
42,38.29903025862923
47,46.276992135946124
49,47.32929148227383
45,46.43667344526108
4,5.605137291826476
16,13.92753996449629
-6,-4.791158033546604
27,25.35675053571017
41,38.56667430197459
23,23.252051325814598
49,46.574260289980955
21,19.97354774615719
-38,-37.83236172292488
4,3.49158656255375
27,27.342449648359455
41,39.99814303732555
17,15.360152643035608
23,23.222177660728907
41,41.502347446807235
22,21.95612939851382
3,3.9610096126720116
20,22.838584423292982
26,28.19775359037225
21,26.013387010677615
24,23.64041370413856
-19,-19.547881787515784
-4,-2.5248488738147916
24,24.19059672611183
40,39.435553033906444
7,10.517819099306406
20,17.203409378650974
46,44.68186479188783
43,42.90545708589005
44,45.287945981805116
28,28.2298843988971
18,21.951451288472313
34,31.213965072546003
47,47.57498551850598
45,43.87815356426889
12,17.395480001063277
6,6.706615605507287
41,36.09683133730095
36,36.786349400340455
29,27.88717198695462
10,9.857924831265274
34,36.369265666230646
5,7.436781289497629
27,26.852880310972573
42,43.77398706603017
1,4.780326923123093
18,15.728599483512514
-19,-17.752724305490602
47,45.29374024363246
47,46.58012979883641
26,25.31063447688071
40,40.35815313582675
3,8.135850130755998
17,19.116568357136728
44,44.34543714447545
28,27.42812363723478
18,15.627956646579984
24,22.307131937704035
8,11.590367457417013
47,47.176140296093095
42,46.7385423329651
32,35.32471723812939
-3,-2.765989775055367
16,14.692488454375503
-32,-26.72512622539081
24,21.574693087288328
37,41.408060996739216
4,4.011865989115445
45,42.84497603825877
44,46.00396542552574
3,6.291219764636052
33,32.782630898314004
44,44.35867997816302
3,3.845281099932944
31,32.42966684141752
-26,-27.48084450701905
16,14.127259689678679
-37,-38.759000230584434
18,19.336916006261863
22,23.837077423298037
19,17.67588638278459
7,6.895123582159397
-31,-38.91910005507605
29,28.856898832768913
45,45.79257747146868
1,2.6539965619252763
4,3.5595643958238288
41,39.86957355887698
14,15.464226973641155
42,41.41047292986151
11,12.12413734900357
46,46.566129731324644
23,18.001729551228166
16,12.69514859953339
48,47.54742536897744
35,37.36736594082731
24,21.384612766467637
4,3.391329287057232
29,31.243529304174427
34,32.72662279721626
13,14.316988401850374
11,9.438343827360526
5,6.158569295899485
18,19.208955873325852
3,8.468050527463243
5,3.29500482658105
10,7.505296784284325
3,5.133886735240072
37,36.87423312340182
35,33.06152057979794
44,41.12363165057882
32,36.03065681698105
45,46.79729377565629
12,8.022006805535948
46,45.71331368679934
48,48.30671510237524
26,32.374041326566456
45,42.24509871829449
48,47.937435070100555
33,32.67412171889798
-45,-44.494029263191045
-41,-46.39665694620921
43,42.69769796711425
2,2.3972562185586432
5,6.310929716226719
38,37.91367574159077
18,19.455913279588575
-29,-29.179039461483228
44,45.019466172644954
-28,-27.536698988281955
39,41.26341007716654
48,47.548127276974164
5,7.226578952231278
5,4.958498689714556
18,18.22968504638715
43,42.92175917364271
16,17.059284923818524
11,9.956557802076516
31,33.74723979269949
21,17.98302421760646
30,28.677042736855082
9,9.949549522967295
42,43.243825054292294
14,13.514151374851423
16,20.160646342863295
40,42.07282312627839
1,6.485092849565567
46,42.20401891389382
14,16.03935553239894
33,31.88394331468829
22,17.796947821235136
8,6.688362721232708
30,27.91140901566724
14,13.82969127433164
20,20.505346044843243
-40,-42.53745802860669
19,17.882712498335003
29,33.489683441165944
31,34.14877725775582
27,24.633147340387737
27,27.688197123910655
35,32.94243615960486
45,42.79943681537643
-32,-29.08156336682654
38,36.81464839782883
-21,-21.41687006931368
32,33.73643997455366
14,13.798911149544816
-42,-42.61870907339565
40,37.55999548890339
31,28.30166040613696
21,19.09844472380613
40,40.799344859198065
47,42.964373047380974
-6,-4.91045247607632
42,43.851918681460496
30,30.26641578986343
11,11.52383275718841
43,42.87291976907914
24,25.956966781542018
31,35.14880751781341
1,1.7145277922802333
44,42.93339729740532
-12,-6.784158517206448
41,40.83757529651527
31,31.705658227928044
19,19.710340687483402
38,38.91164443814344
30,36.117402843580884
24,25.495674090754818
28,25.98089902039525
2,2.6685378335057948
17,14.099215355398258
4,7.278374166123007
47,47.51039364891811
22,22.435291718954293
37,35.53762053067261
5,5.211450504580084
49,48.27062672664409
-35,-28.70181585323042
5,5.318101326138156
42,43.8009299804908
35,31.30282153867194
26,25.055343807908887
15,12.110592586334436
8,4.6992027042923965
9,6.843739946765169
29,25.59931545921606
24,21.21738356362548
45,47.62777867985542
7,5.502549716045885
11,8.933154548265026
-36,-36.353736343719206
25,20.25953644542277
5,3.4754803110515895
20,20.129924665784134
30,31.756292660064133
4,2.596997604024993
11,12.052789987964383
21,24.152127868729572
-3,-5.366566393663288
1,1.6868481939183948
12,13.38925213316514
46,47.37858095165318
-29,-29.242606081070758
42,42.80201851876128
14,17.242752470896434
49,47.41730320170455
45,46.46580650250048
-38,-31.605684911724957
16,15.875831436174892
46,44.45322150428614
49,47.403001242748275
-17,-15.784719203948905
33,34.43190648406859
36,38.1847265602886
5,9.013006444789868
3,4.334050358990246
46,47.1098279001819
22,22.219095751129014
25,26.513153179944727
16,12.814127507639585
49,45.20182386672134
24,22.583600137841238
6,6.579677919238074
46,45.77957029943623
23,25.171418456329043
38,37.859618781028686
33,34.14824217083041
29,27.453854785855118
11,12.79640081290026
11,11.304844084092588
36,34.3833672376473
6,10.36818943707051
5,5.561254583733994
13,14.273156882882866
19,15.858453950618067
27,28.512348537740184
21,24.049858310628256
3,3.3526000799893163
-49,-44.41019733040129
2,9.846169498391738
-24,-24.364159454232595
30,29.725946160187135
6,7.481578787603136
8,10.320490893175212
33,34.93412071551425
41,42.63339240755004
-12,-12.359748484617812
10,9.081960848611445
6,8.05417707077655
24,21.478354319208584
48,45.83891597330061
39,39.49147801610851
1,2.1541550754249177
15,17.260480796312013
29,29.719826972136296
26,24.144406906611025
11,10.9297236068913
-38,-43.03880664642021
49,45.011747998911474
13,10.1379214230056
38,35.08390145738489
9,6.220782217574464
15,12.635855241577538
12,12.879252518082675
6,11.689520026767138
36,35.70925858417599
6,8.81006871680082
-14,-12.59431334231944
44,44.864748991933475
-4,-5.058592050164262
42,42.85316277611063
48,47.36727494842363
39,36.197933504178316
14,15.280877333366478
21,21.150834935815517
18,21.877463454777168
4,4.854901660651823
17,15.84519059697266
10,15.206594415026116
-13,-9.786154469702842
22,22.49215719401096
37,39.00880206223998
30,29.160809880067795
40,40.618345820547646
10,7.59975612314871
34,39.58261588808705
11,12.71036391026842
16,13.437108450693376
7,2.799403278944113
28,29.902606114913734
36,35.728672054588536
44,43.45111769480314
18,22.776677474789555
47,46.36598248846186
32,32.39174585420727
35,34.419554126773114
26,23.473581634677227
4,8.037051917532805
31,30.90261286499492
5,3.6013676845838094
-8,-9.936886299782442
18,18.79321528070208
17,18.80283643948183
-13,-10.49661781260113
42,38.908708212805415
20,19.63819285087783
1,1.8485492890416944
-7,-12.215362473564625
9,7.721088711401505
32,30.851790197317268
42,40.744960670519035
44,44.3077548371295
15,13.680300118526732
47,45.22598300479461
49,48.31798320008284
4,10.12829523273298
38,37.97652047529353
10,14.1660037314064
19,21.338657783263336
43,41.109046518862414
48,48.0031431451166
48,42.78073575460555
37,32.056555937715245
47,47.21097357595359
6,7.318117104921547
27,28.4436559384335
13,9.06067882667862
4,4.940779494422956
36,38.20628785343508
-20,-17.943551369412997
20,21.64687257619182
38,39.19114759610153
7,13.902336653860587
29,29.446815558589773
46,42.83702879641108
47,46.660441581105005
47,44.53251415648726
26,26.33453376963771
47,46.99813012470738
36,36.92563606906432
15,18.038957307704997
48,46.98451236465353
39,38.927350275462985
34,33.14422754402584
16,16.434907066623094
3,3.0589924640728747
46,45.37897335310217
25,24.085312633431386
37,34.27777584870503
35,32.90130589242576
1,5.247821816367563
47,43.75420829809711
36,40.82245435833869
3,2.5370957942474557
22,19.328453526422326
2,4.366896072893307
29,26.84109063498135
14,12.38575425819166
34,30.504153613559026
39,36.09564753119963
24,24.248757737428377
10,10.314548111101027
22,23.32639770069009
20,26.082183997069816
3,3.0538458292566224
19,20.3551682093722
35,35.68560520531393
10,7.958368699962776
13,13.65610787050255
3,4.487997753250077
38,34.46025716105854
9,11.377109964010902
35,35.55673680780572
37,37.13788049604407
34,30.802886408136843
33,32.84046687426515
22,22.02237463825121
34,35.12141519384724
11,11.887469010697593
-19,-16.164625084028312
38,41.57070322252757
-15,-17.99083375716075
40,41.14166188183387
40,41.41993741419661
2,2.7353432096769046
17,13.758647789333683
2,4.07634549206518
32,32.012075052729934
45,47.2375650862133
24,18.594572206586744
42,44.40026439871055
8,7.617383817566541
31,30.5608802210211
-42,-42.58755453391533
44,44.018283476014304
1,3.8425638163386586
45,40.69135758220718
20,22.694460746574446
-18,-17.46931903720412
17,17.51387388329639
44,41.587288435996335
34,30.95217382525622
18,19.129340693485016
1,3.9137761245490594
32,33.21084037206475
9,11.202471595572243
35,34.31529086524247
42,44.25713657264841
31,31.701830473830405
2,3.0230149333386622
25,25.43449048632192
4,4.1658139538649275
30,31.441648787292767
-1,-4.626015798078611
12,13.958253050509006
31,29.583994990749897
38,39.75744180434892
18,15.31902686331389
25,22.94989706064485
43,38.79826841796907
18,18.103446818904636
10,7.19754101499676
9,8.860407267853658
26,28.219445067906296
24,19.309208279531052
4,4.563645877983067
29,31.73364397158937
29,29.118976078899472
20,23.623491583979778
14,17.63223255186292
-7,-7.39896152545329
6,5.136310423529789
33,33.05722332387275
8,5.225678506478283
10,10.326616479434678
35,39.315995599482584
44,44.38054539444862
10,11.934245562870554
9,12.221478488974514
39,39.49979809752075
2,4.351505479653978
14,11.684383537551
1,1.7734893236025024
14,16.555440351434072
19,17.466538461573784
31,29.863918346738
-28,-31.696113097869148
17,16.158354358925493
25,25.20448516635445
19,19.977855915865746
45,41.3194209033288
41,44.34794830015301
8,4.97697935278748
49,46.14577032298516
41,37.52911036465856
46,38.51266368844139
36,36.48127997492785
22,21.426697435954804
3,4.615540107588718
12,11.346071754336299
40,40.9387700009747
31,35.90283275439125
47,45.71569675320289
-22,-24.389603868952907
9,9.509226425653774
9,10.021591848687528
43,43.027680478393506
-31,-30.95719165628817
38,40.00437745577278
37,38.76102297687303
13,12.180257976444818
12,14.8115231566365
12,9.294122897171032
26,28.442439585669668
43,41.07441416885262
20,14.341854765308842
24,27.59689706867381
11,12.505302855869301
18,17.051600777551187
36,36.22567938926787
9,8.719528176506925
21,19.90524363918895
47,45.87394760476098
16,14.034445334620402
-16,-17.852419761486267
1,3.480788670769279
15,17.29956526585237
42,44.154719938250416
-41,-40.17030615113663
31,29.197121778734513
49,45.39339423335879
16,19.599582026710635
33,35.6310938957908
27,24.283821921095072
40,40.04894369665984
32,28.892232950685692
26,24.394728686477638
39,35.93586268322155
8,12.145472266917277
30,29.985959205757307
-19,-16.037160890174448
16,15.578220030123527
-44,-39.419990806410034
9,7.373818647253435
32,32.65003608547937
21,19.99531199382022
23,25.55759671779439
1,4.542228846446691
14,12.632983550110577
31,31.326531587049345
39,34.522218486972456
1,1.7865498114137488
32,34.05348991234823
3,3.892305448697917
3,3.195385405111044
20,18.92683176304764
49,47.672989691225276
-3,-5.001413795587966
43,41.44312289360924
3,3.777634817839447
20,17.306026824497593
36,38.50221657065025
-48,-46.891803577267
4,3.619006214930768
44,45.96159036493113
3,3.4104870742959084
21,21.559976567266364
45,46.27446465609132
40,38.67170567182895
12,9.965527777883812
44,42.04759280674561
34,36.25542264800724
9,8.800046560860594
41,36.8317546138097
20,16.36635451374757
10,8.764917660242673
13,12.196591303100831
47,47.500976734225546
22,17.498220332893283
11,12.602769199810075
29,29.96192149321557
38,41.998349962276414
30,32.01058782928861
32,34.94621384184705
49,44.45164216259114
-8,-5.020105425890613
-12,-8.85911869916423
16,20.116899421402557
-2,-0.721881929212642
3,4.314932531143096
41,44.34642200190655
28,28.151311622396694
13,10.274410889056197
24,26.257922983516522
42,38.12084659654702
27,27.36897021375204
36,36.07157225824773
41,41.273207759610536
8,5.752676622503607
19,17.528709377950186
6,4.861480259413733
40,40.673991904956104
14,15.187682679052385
30,30.511627098301847
-16,-17.826913448403136
-37,-38.623125613051926
6,3.4530446087158237
27,22.621094775647894
7,7.915760594440607
12,16.14546889304373
3,3.7514185053782274
-35,-29.143136276202583
-14,-14.433330690715767
49,45.85368496089044
12,10.484975773021997
26,22.53606907720212
41,40.90683082871269
31,31.15760992770774
46,44.50438019489793
6,3.584666906861929
6,3.4437695773557913
43,42.78230480048557
32,30.79260676214269
46,42.44376005311732
20,19.138398850102224
28,30.770133929845173
24,23.70618762839699
32,27.957924553059836
47,47.40216196516706
16,14.56968608525805
37,38.372765678361624
39,40.97204417718136
33,30.525387405379234
-48,-47.623204817863574
9,9.385963767341742
42,41.3581722720942
42,42.37922030248781
29,27.670060483121766
41,33.43671186352499
47,44.86931913115094
16,13.105152884650703
5,5.241719810467607
29,28.734430726026407
5,4.51684214786165
12,14.962146790186749
-47,-48.95959852262235
33,32.26786556905635
12,10.733268833616664
25,27.343801272590426
20,18.943219666135583
24,19.11160777653015
35,34.00379291239554
31,29.976808600883462
27,27.58607075776578
17,13.447855719271105
28,30.58453167869228
2,2.506883655493513
45,43.274848147619934
19,16.98994209940083
-17,-18.292338328509448
12,11.184057086387702
31,33.72389287032241
24,22.417259083963984
-27,-25.902686835932712
32,30.444898973922484
11,12.574236309913553
34,35.789659132106216
34,37.59261215248612
22,24.275651754203587
-46,-45.756337797035854
41,45.23943703035192
10,10.063802264133399
45,46.647984137929456
4,2.0900080545813142
48,48.169164538841414
46,47.04203206702616
30,26.37651934276083
34,35.24543782976451
18,13.033528357170708
20,20.537166756814784
41,38.98466930446156
39,41.28420870438823
35,37.14806679883351
40,41.878825279885405
5,6.904008599533873
9,12.517713496859033
13,7.346155275326785
33,32.0843510139328
8,5.565597277267433
1,2.8215822453955055
-31,-33.0790678895229
30,28.390433771503186
23,22.88337981433831
20,17.607953206296635
20,22.65180893171306
45,46.55837038510209
30,29.417312443578865
22,24.11153512564055
-13,-9.841168398917594
-32,-31.353426018659537
19,18.60261060419272
8,9.806982653094371
-36,-39.8124793376888
20,21.50496094859073
32,32.07433432510772
21,24.385991659425148
44,38.228757683383385
45,34.465024245145436
29,29.53449144418408
37,33.54939882456632
21,18.457300160121882
-45,-48.90363935379859
30,28.133720480511567
40,39.30229488065741
3,5.900291927884682
37,38.42542948771799
25,26.08618744000353
25,22.86331335557695
30,27.594129885226433
35,34.07733623760375
32,30.54656617646381
44,44.09648056722541
19,19.121999386263063
13,15.029902594850642
4,4.357533031097011
8,11.007453006807102
4,8.963020393498383
24,27.009462529418755
43,44.78944226032678
8,5.577012363797134
15,15.116187533198115
19,19.409740093049663
33,31.229063326477064
15,13.15855098735013
44,45.9886974156787
29,29.682069650275007
13,8.849790633284284
2,6.381598199538269
23,21.528383550025065
44,43.93568807839451
25,20.324086132258305
14,17.410716451376274
18,16.52374936801384
-48,-46.567789752035175
1,4.710528102427483
34,32.216905039127184
44,43.03112557123924
1,3.485818572995169
24,21.65152172459053
6,11.69881710719118
-16,-16.283378369046122
36,41.261268944595486
-9,-10.808362910037564
6,7.90271688455201
10,10.426761767972605
25,29.487965335452518
9,11.795890474688393
-2,-5.607517476061178
17,12.932115269745102
16,13.636698083464095
10,10.209139779527913
40,39.30671384374258
24,23.93173443747888
26,24.44010011082806
9,8.943565328992415
47,45.98611597614759
32,33.6630967455202
37,39.5306217142914
26,27.48161417571567
31,30.694196012409833
33,31.38957241872468
34,34.91202567878769
-8,-9.940695113341748
31,32.376884789148754
13,13.622888140919363
40,40.85015232840599
42,39.92215525439693
49,48.220314786154326
32,32.5416465409253
25,23.29656417024933
10,9.870974699813749
38,39.17161665701293
40,35.67237850962237
22,21.64882081420835
10,7.171714394312956
6,8.132207520770194
31,32.33043476356815
9,9.349227157021327
37,34.25422354760897
6,7.38192688863015
46,45.84351841406213
21,23.028905972834234
22,22.073335451313014
14,12.185926859256027
32,33.43501077760874
35,37.40247926820014
25,20.64683052174875
40,39.63941865392946
47,43.321105501551784
3,3.291973376962018
15,17.3974483757007
41,41.282275825085634
3,2.449897577347949
24,23.481658621535754
35,37.248472965836605
44,45.514063997786394
41,38.17985604655445
43,43.9361595852067
34,36.67181296193628
33,32.80398767963235
34,33.76446514048911
32,38.24585382477639
37,39.53967756083562
31,31.22447564950356
13,10.77865216562933
42,40.03642239071246
19,21.43116163623829
37,38.104992024286936
13,12.394281567768525
20,18.903499269772997
13,12.967564573749204
44,45.33605240141914
31,31.71168363622775
2,2.7571758767665764
22,24.017527589476575
9,5.786423422005805
48,44.22287367443794
24,25.752592945992898
29,30.410681405091463
24,23.74218215636563
25,22.67491056995211
40,38.846574965347436
8,9.744575670678039
11,14.909591582388867
28,27.71959986576707
15,12.706438484547506
15,16.086229941608675
36,32.53547908060431
25,26.751251319683384
9,5.140249958198757
6,8.288300008366116
44,39.493591279344024
37,38.255055992901575
-17,-13.990627315967405
49,45.687755209325786
49,48.326823349608624
26,26.433236833156244
4,4.149741485091696
22,22.096917043681657
43,39.46464501787341
1,1.8490700922853867
-11,-7.618754747977103
45,46.69376535742082
41,42.680967900052494
10,9.893383340800174
-14,-7.532328197664951
41,38.8766966590218
27,30.368124978970865
3,2.3077861468675076
29,26.2263772100292
1,2.2296931032950087
14,12.614069042350236
48,47.18814663530828
36,32.44534789802501
33,36.00836017554383
-2,-2.8493287209901323
39,43.41373272819688
16,17.541855572284064
8,6.633729061973935
2,4.7925917228396635
8,5.946167016788462
-4,-12.546995053811399
41,40.852934089358804
-3,-7.208557422900192
4,5.7362018445748975
42,44.325185889801
25,27.265784075623955
10,8.527259899096261
46,41.935022377106115
41,44.33658445424152
6,5.752334916391701
21,20.512220237395177
16,17.567008536225206
-48,-46.04563851828807
28,31.556233251528052
38,34.03863267305313
40,42.40062917293472
18,15.060759521100158
36,35.90705849501682
25,29.117654676222095
48,46.45598921830564
4,2.537003106821798
30,27.97369033942431
38,37.29125121531911
15,15.850249341765775
46,42.771914606938765
-22,-17.737062268045204
31,30.436884826848846
8,5.583185294561892
6,5.193663307496624
16,17.754192826888406
24,25.301254624489022
18,14.91622543978509
-34,-34.75486495250911
29,27.463659465563275
12,14.285938921030523
5,7.006096358201755
1,1.9546821005416504
-6,-5.0517085103689725
8,5.362279406394381
-43,-44.37164655911098
21,18.67506266986264
33,33.35689884920918
12,13.8819887440892
10,9.153672468525055
41,44.292741351574115
37,36.70366516581441
17,15.889720694546169
33,34.58295454445382
20,20.41926078964962
22,22.161076198285862
-1,-2.51303855829604
11,9.0582408472017
34,35.28391876573767
7,10.021885781165153
-4,-2.5756806975925626
25,21.366348324601603
37,35.22214948793954
21,24.08791939106154
-47,-47.310346657776634
44,40.9381191143866
-37,-36.88616290941013
40,37.89752866823096
1,2.1778467248158466
15,10.522740162999755
36,34.51897724442549
31,28.946009140005724
45,46.38883855479945
28,25.618002693283582
39,38.40847258237576
43,45.2342749496674
-24,-23.173950385091267
3,4.280601608041079
30,28.758411794063548
21,18.908776539463428
32,32.57711553745355
32,36.32376877559981
45,44.90303434832896
2,4.665255363572235
15,13.534123318833434
28,29.59841299513788
6,3.421911668162054
48,46.03245865253247
25,24.088529790423028
13,15.074430861743863
11,10.457516771488175
48,48.04279494411672
13,15.386549523332029
12,15.750914348708324
38,38.13998714253903
26,27.484162412325556
25,26.838381185595573
4,4.270264745839355
45,46.17144247832603
44,43.741081682476846
10,7.184185870114615
49,47.8873867709474
-34,-38.01651957271709
42,40.54801921050945
8,8.388110703951606
-6,-4.753096514023468
42,45.43656240067757
8,6.696902967525174
28,27.167278450152153
9,8.908665722938213
17,14.620330244131477
30,31.48766196032737
32,32.532352528362345
-17,-19.18160051094809
18,13.80400584917475
8,9.996618523712588
23,20.893962485164668
15,13.482948649700958
40,37.85818331550334
-41,-42.44231181619794
21,21.01604804324546
46,46.53617669889265
33,31.21597597165386
24,26.86571881979519
28,30.828687418722097
19,19.958618290433936
-45,-44.63201099883991
23,24.500461454329873
7,7.302991121939255
49,46.66206087208097
26,27.871434068433715
47,44.186443943227935
-11,-14.57844363440175
8,8.13378122013013
16,15.614346192874688
48,48.219447333078186
47,45.09322275055677
40,42.94949395077693
1,1.66170144821255
32,32.10092289997979
36,38.7782118073091
45,43.270971433449915
38,39.079350473186445
47,46.063016328926054
44,41.464392416915985
33,34.34892701870263
46,43.360458213954935
3,6.565346487691285
15,13.353095454287738
1,3.3144540319247207
-26,-28.922657151670364
49,46.49120725718961
19,17.995208052767758
36,41.968593651755214
22,25.569123344226686
24,21.961283404985917
32,30.764650584493225
1,3.382176800746661
48,43.70116101053459
17,17.91211281320738
30,27.865350104726645
8,8.726446227527813
43,44.235902767945674
45,47.41818851797882
13,14.605753722377361
9,6.543245189054794
7,6.558547456414897
35,38.09088069671033
31,33.37705874916678
47,45.03994188877022
18,14.925185226138534
14,15.69296625753539
18,19.217612194261893
47,47.0948087804227
46,46.67465026373444
-45,-47.61948065540985
17,13.521522746274137
46,46.192245857524405
15,13.651996986947543
17,13.438750895988756
5,7.8383037870764705
7,7.143252936347609
9,10.593558960687892
-12,-9.823845957716618
13,17.42434808135082
37,36.58356587828409
27,27.914739906530063
32,35.0827026403317
-36,-36.30922222522436
48,45.808357424986845
40,38.0887482290013
5,4.102780053777428
30,28.659193108576712
45,46.79790889061042
29,27.50803574452392
14,12.480583469407264
31,30.15888484210703
6,5.924172522591459
8,9.03745009135779
23,25.251218875926337
5,6.840148514945523
16,15.156403460839742
13,14.25404257392803
41,43.04171004224377
8,8.988022503662272
13,12.399123498637357
49,47.888819535649375
26,24.750449119560233
30,31.90046944738723
3,2.968647306495616
-15,-17.984310389848883
24,25.593946999520707
5,10.405511250636826
-15,-14.34133600316176
16,15.755584488908237
34,34.16476293280654
23,19.996805515287736
10,8.927459492000033
36,39.14880924597876
49,47.33298417843846
36,34.63545646594887
4,6.746923390053224
26,25.603966267700866
18,13.793451666657694
22,17.993310927773088
48,46.284755630938335
44,39.293203129175716
28,31.238603565241114
48,44.02850234800914
40,43.27587899420537
31,32.07018815626764
40,39.004172954763405
18,17.635992199958373
9,9.171724519900572
-21,-17.835684749797334
42,40.734270019910404
20,25.888607336046757
28,26.30393175024836
45,45.467216830720545
15,14.41139025070988
36,32.51856569540842
16,15.754179084332675
25,23.55410379893843
12,9.585808017324066
26,30.199047086389104
9,10.28404833212378
42,39.492086353585016
14,15.830675274719967
23,21.859150682432944
40,38.969411174396214
39,35.23030496375204
-30,-28.786716087429436
28,22.330140151723423
42,44.04345627842275
-6,-4.952284631603294
7,5.919612003043836
31,23.138689316471343
21,17.156248545227232
15,15.1963311427729
25,20.3882135191752
39,38.905456206169035
21,19.946930356089517
32,28.329852795017906
9,7.289158847550132
18,14.912559756146663
11,14.62315105940837
-7,-6.9711542904636055
20,20.689510282584873
45,46.65837116497562
45,42.62290327696212
30,29.091484444465546
-14,-12.525346815639834
47,47.249365357129406
10,11.437824246312276
33,34.26014164625475
25,24.524908760016235
20,20.408650453022425
48,48.07017782594142
3,5.142557509830739
15,10.450171866516241
-2,-0.7928067394897335
33,32.7499016561221
5,4.299661894306749
18,14.171353042801705
13,11.709881603026409
42,39.69506012053882
-35,-33.47439072697349
23,27.953278569444546
45,44.31496958817073
-36,-36.279921433413335
15,19.186401422377227
-25,-19.6855178081272
43,44.9217417975772
21,19.548040343053255
12,10.103204435942098
14,11.242582358800364
-40,-38.33567174356118
31,30.194224546686645
46,40.9473654159
4,6.21167052374332
38,37.33942874410398
3,4.213150557592313
47,47.572506082778
-8,-9.894222940831657
31,31.690638540294394
30,30.82016000746649
39,33.96854433802632
34,34.348624311001736
40,38.04765358845551
13,11.801883861416497
35,38.03997813789886
9,8.293891546962284
32,34.22507013340115
12,6.152543034955473
32,33.552986405606696
4,2.9082835699267684
-27,-24.03120510442306
24,29.254382226666813
36,37.556835158003246
7,12.129108162673734
21,22.473070550432052
23,23.653598091191856
3,2.38389507602099
43,44.566732761956295
35,33.77165119086524
29,30.242861575669263
32,31.638323894323655
41,38.094277926748624
44,45.62409609129794
18,16.99486566560194
17,15.574480945706986
2,6.940169896335447
38,37.51964354989774
29,30.690975786105515
42,40.8797500212344
47,46.67737970667814
-4,-2.0382690955100116
-41,-42.97990541927517
17,18.37977493848303
5,4.740463839924582
13,11.504033071210465
4,8.765597229145817
9,7.220666248084773
16,20.0563191720993
2,2.9554897393133803
29,27.83730935943885
17,12.863171107415344
46,45.73519912510738
7,7.093188603149457
30,27.669344043945415
18,15.361987656523588
34,35.84123193417881
28,28.181070408828987
16,12.551667272179868
25,26.488741260139605
-5,-4.8915260760684
18,15.924736935475002
21,20.585550904112317
-21,-23.717051387714896
10,10.270905757827624
39,39.43955468636584
15,14.841981094087371
3,3.0997179472102743
25,26.283055866065364
5,4.06932805683873
4,7.200204530816999
20,20.454159004275038
12,10.477626179303245
42,37.0793669368585
28,26.707622836672396
20,20.155177208190455
7,3.733057897000097
35,34.00013823381864
19,15.27244939296493
2,8.715164875710435
38,37.41554639771052
33,31.23124038104756
22,19.46568312378155
43,46.37559202256193
23,21.439850577186775
25,24.55409162031734
47,44.97659851201507
41,38.25681121448236
38,36.8247125352914
45,38.86118352658852
-27,-28.83560616880026
40,40.46148901511089
44,45.60515394830331
11,6.676762153906783
-39,-40.13303974619802
39,39.42311644712816
28,26.966958399944286
-50,-44.259001604996634
7,4.54781463137607
26,27.8746130102404
1,3.90174214287562
32,33.980611255974594
37,35.512575043922176
10,8.877742642812795
23,20.019001373572614
33,25.836048074651785
-20,-15.911865572127335
17,17.980150977278434
11,9.880819945388252
41,40.44921364203231
39,38.97516137390373
-34,-34.5759631024244
45,43.20812063981838
-16,-17.87745144660134
42,42.591025841238036
1,4.72817217224964
33,32.460445412442716
48,46.85302709097667
39,41.30529264166845
38,38.91514153790367
42,43.0008379517657
-33,-32.5601203551107
6,7.587988248817856
4,4.32485976985422
15,13.949624670708355
10,10.388919559631425
34,30.09948388326728
8,7.919098505126911
40,37.83182946962864
9,7.384501711500041
3,2.383182707705165
-31,-31.578378533042823
42,44.37308548976171
14,14.002810321129813
34,36.852666386962156
22,23.585347244728155
33,34.211439986314964
49,46.39540874252544
1,2.4991678262420236
24,26.105853699584664
45,41.399178008435186
32,33.82606816062123
29,25.50414193309345
41,43.28536290191701
2,3.382481718142078
36,35.30155485908475
20,17.210493002320362
36,35.85049655501167
8,10.197404224435832
-31,-27.804126853880046
43,45.42417834798205
48,47.1073955278463
48,45.940976271636025
48,47.94302527094985
9,12.67895320723002
19,20.42242496632557
11,10.705285952134647
13,10.20946541545407
19,20.298758045534726
9,6.45298014904726
10,7.3090276070160325
22,23.10507720981622
4,2.3422706475239723
38,43.58626075443897
30,29.13682853139595
43,41.37747737672252
39,40.52266043759969
30,30.39006842820336
22,23.55907512108871
2,4.770610212257222
-40,-37.29635609527452
25,24.56067857147152
29,26.69229213732163
-23,-25.000615327261496
44,44.02586693060853
34,31.240491529061313
8,10.266748843323816
7,8.82824714060396
49,45.66018993447995
12,11.72220259971508
-33,-29.00332448724823
40,34.79117415241465
-23,-26.781621471785876
3,2.405496503835132
-31,-28.554309240274602
41,42.44105772569001
1,2.6332046170259686
32,32.350997008134485
16,13.68952448987237
28,30.02489827603365
19,17.402833752516457
17,17.104831134192615
35,33.67269140926125
11,8.328049676372068
42,42.66991491313416
43,44.41028353238946
21,21.401260009033848
49,46.57983090586733
41,42.99037079146265
33,30.534830938192293
1,1.8693970671143836
6,7.606520206609906
8,8.03238808433406
8,5.5872914455228795
30,30.34090445863376
18,19.320031252486245
40,38.15531327854751
29,28.97428683650578
23,22.389465208307655
6,5.709150317052567
39,39.422891662480104
45,44.737975622237606
35,38.004863974530195
6,9.535307660626897
45,43.862728875259144
9,14.217814491996014
46,46.02206254265633
40,43.131023672555955
41,38.189869792362295
9,6.914954861778639
-7,-4.608820052278896
34,37.07836720380072
7,8.03547688684457
6,3.702555887046247
36,34.866529534619616
16,16.552220002802414
28,33.10385215452505
18,13.992930617768948
46,47.07997181220452
3,3.780444821740011
13,18.822480909166707
46,45.19863208902353
1,1.7830886451951884
2,2.600682417797606
44,43.0142370875845
2,3.582751644702376
47,47.287573542002406
44,46.78465328261252
-13,-17.74442992356512
4,3.532028286068387
28,25.74257143595049
15,14.750470821543079
-16,-15.926014201800848
6,4.935087267183719
-45,-44.466406970976294
14,15.438748308550968
16,17.336447906164228
22,17.082356447326987
29,34.06203551353244
-35,-30.817525398177104
48,46.75232679672265
48,45.58621272197989
